!!!!SEGMENT: pl-wn--mus-iii-601--002-003_janiewicz-feliks--iie-trio-pollacca-rondeau.krn
!!!cenid: 17xx:2392
!!!COM: Janiewicz, Feliks
!!!COM-rismID: pe30011012
!!!CDT: 1762-1848
!!!CNT: Polish
!!!OPR: IIe Trio
!!!OTL: Pollacca/Rondeau
!!!OMV: 003
!!!PDT:
!!!AGN: Secular
!!!YEC: Copyright 2022 Narodowy Instytut Fryderyka Chopina (https://polishscores.org)
!!!YEM: License CC-BY-4.0 (https://creativecommons.org/licenses/by/4.0)
!!!SMS-siglum: PL-Wn
!!!SMS-shelfmark: Mus.III.601
!!!SMS-shelfwork: 002-003 M
!!!SMS-variant:
!!!SMS-altvar:
!!!NIFC-rismSourceID: 990069598
!!!NIFC-rismChildID: 990069598
!!!NIFC-islandoraID: none
!!!URL-pdf-islandora:
!!!URL-scan: https://polona2.pl/item/six-trios-pour-deux-violons-basse,MTAxMDA3MzY2/0/#item @EN{Scan on Polona} @PL{Skany w portalu Polona}
!!!IIIF: https://polona2.pl/iiif/item/MTAxMDA3MzY2/manifest.json
!!!ONB-nifc: UWAGA: źródło zawiera 6 Trio na 2 skrzypiec i wiolonczelę. Violino Primo (od skanu 3), Violino Secondo (od skanu 37), Basso (od skanu 61). Basso to partia wiolonczeli. Części Ie Trio: 1. Allegro moderato, 2. Andante, 3. Pollacca/Rondeau
!!!AIN: 1 cello 2 violn
!!!OMD:
!!!OMD-mod: Allegretto. Pollacca
!!!key: A
**kern	**dynam	**kern	**dynam	**kern	**fing	**dynam
*part3	*	*part2	*	*part1	*	*
*staff3	*	*staff2	*	*staff1	*	*
*I"BASSO	*	*I"VIOLINO SECONDO	*	*I"VIOLINO PRIMO	*	*
*mI"Violoncello	*	*mI"Violino II	*	*mI"Violino I	*	*
*I'vlc	*	*I'vl 2	*	*I'vl 1	*	*
*Icello	*	*Ivioln	*	*Ivioln	*	*
*ICstr	*	*ICstr	*	*ICstr	*	*
*clefF4	*	*clefG2	*	*clefG2	*	*
*k[f#c#g#]	*	*k[f#c#g#]	*	*k[f#c#g#]	*	*
*A:	*	*A:	*	*A:	*	*
*M3/4	*	*M3/4	*	*M3/4	*	*
=1	=1	=1	=1	=1	=1	=1
*xywh-#67:443,2019,3271,365	*	*xywh-#46:558,426,3363,572	*	*xywh-#14:485,458,3387,562	*	*
!	!	!LO:TX:a:t=Allegretto\nPollacca.:mod=	!	!LO:TX:b:t=Pollacca\nRondeau:mod=	!	!
!LO:TX:a:t=Allegretto\nPollacca:mod=	!	!	!LO:DY:t=rinf:mod=%s	!LO:TX:a:B:t=Allo Moderato:mod=	!	!
4AA/	.	8c#'/L	rf	[4ee\	2	f
.	.	8e'/	.	.	.	.
4A\	.	8c#'/	.	16ee\LL]	.	.
.	.	.	.	16cc#`\	.	.
.	.	8e'/	.	16a`\	0	.
.	.	.	.	16cc#`\JJ	.	.
4A\	.	8c#'/	.	16ee\LL	.	.
.	.	.	.	16cc#\	.	.
.	.	8e'/J	.	16a\	.	.
.	.	.	.	16cc#\JJ	.	.
=2	=2	=2	=2	=2	=2	=2
4AA/	.	8c#/L	.	8ee\	.	.
.	.	8e/	.	4aa\	.	.
4A\	.	8c#/	.	.	.	.
.	.	8e/	.	16gg#\LL	.	.
.	.	.	.	16aa\JJ	.	.
4A\	.	8d/	.	(16bb\LL	.	.
.	.	.	.	16aa\)	.	.
.	.	8f#/J	.	16gg#`\	.	.
.	.	.	.	16ff#`\JJ	.	.
=3	=3	=3	=3	=3	=3	=3
4AA/	.	8c#/L	.	[4ee\	.	.
.	.	8e/	.	.	.	.
4A\	.	8c#/	.	16ee\LL]	.	.
.	.	.	.	16cc#`\	.	.
.	.	8e/	.	16a`\	.	.
.	.	.	.	16cc#`\JJ	.	.
4A\	.	8c#/	.	16ee\LL	.	.
.	.	.	.	16cc#\	.	.
.	.	8e/J	.	16a\	.	.
.	.	.	.	16cc#\JJ	.	.
=4	=4	=4	=4	=4	=4	=4
!	!	!	!	!LO:MO:mod=16qqee	!	!
.	.	.	.	8qqee/	.	.
4EE/	.	8B/L	.	8dd\L	.	.
.	.	8e/	.	16cc#\L	.	.
.	.	.	.	16b\JJ	.	.
4E\	.	8d/	.	8b\L	.	.
.	.	8e/	.	8b\J	.	.
4G#\	.	8d/	.	8b\L	.	.
.	.	8e/J	.	16cc#\L	.	.
.	.	.	.	16dd\JJ	.	.
=5	=5	=5	=5	=5	=5	=5
4AA/	.	8c#/L	.	[4ee\	.	.
.	.	8e/	.	.	.	.
4A\	.	8c#/	.	16ee\LL]	.	.
.	.	.	.	16cc#`\	.	.
.	.	8e/	.	16a`\	.	.
.	.	.	.	16cc#`\JJ	.	.
4A\	.	8c#/	.	16ee\LL	.	.
.	.	.	.	16cc#\	.	.
.	.	8e/J	.	16a\	.	.
.	.	.	.	16cc#\JJ	.	.
!	!	!	!	!LO:LB:g=original	!	!
=6	=6	=6	=6	=6	=6	=6
*	*	*	*	*xywh-#14:482,857,3396,462	*	*
4AA/	.	8c#/L	.	8ee\	.	.
.	.	8e/	.	4aa\	.	.
4A\	.	8c#/	.	.	.	.
.	.	8e/	.	16gg#\LL	.	.
.	.	.	.	16aa\JJ	.	.
4A\	.	8d/	.	16bb\LL	.	.
.	.	.	.	16aa\	.	.
.	.	8f#/J	.	16gg#\	.	.
.	.	.	.	16ff#\JJ	.	.
=7	=7	=7	=7	=7	=7	=7
4AA/	.	8c#/L	.	[4ee\	.	.
.	.	8e/	.	.	.	.
4A\	.	8c#/	.	16ee\LL]	.	.
.	.	.	.	16cc#\	.	.
.	.	8e/	.	16a\	.	.
.	.	.	.	16cc#\JJ	.	.
4E\	.	8B/	.	16dd\LL	.	.
.	.	.	.	16b\	.	.
.	.	8d/J	.	16g#\	.	.
.	.	.	.	16b\JJ	.	.
!	!	!LO:LB:g=original	!	!	!	!
=8	=8	=8	=8	=8	=8	=8
*	*	*xywh-#46:485,829,3429,417	*	*	*	*
4AA/	.	8c#/L	.	(16a/LL	.	.
.	.	.	.	16b/	.	.
.	.	8e/	.	16a/	.	.
.	.	.	.	16g#/JJ	.	.
4A\	.	8c#/	.	16a/LL	.	.
.	.	.	.	16e/	.	.
.	.	8e/	.	16c#/)	.	.
.	.	.	.	16cc#`/JJ	.	.
.	.	.	.	8qqb/	.	.
4AA/	.	8c#/	.	4a\	.	.
.	.	8e/J	.	.	.	.
=9	=9	=9	=9	=9	=9	=9
!	!	!	!	!LO:MO:mod=16qqee	!	!
.	.	.	.	8qqee/	.	.
!	!	!	!	!LO:TX:b:i:t= :mod=dolce	!	!
4EE/	p	8B/L	p	8dd\L	.	.
!	!	!	!	!LO:TX:a:i:t=dol:mod=	!	!
.	.	8e/	.	16cc#\L	.	.
.	.	.	.	16b\JJ	.	.
4E\	.	8d/	.	8b\L	.	.
.	.	8e/	.	8b\J	.	.
4G#\	.	8d/	.	8b\L	.	.
.	.	8e/J	.	16cc#\L	.	.
.	.	.	.	16dd\JJ	.	.
=10	=10	=10	=10	=10	=10	=10
4AA/	.	8c#/L	.	16cc#\LL	.	.
.	.	.	.	16dd\J	.	.
.	.	8e/	.	[8ee\J	.	.
4E\	.	8c#/	.	16ee\LL]	.	.
.	.	.	.	16gg#\J	.	.
.	.	8e/	.	[8aa\J	.	.
4A\	.	8c#/	.	16aa\LL]	.	.
.	.	.	.	16ee\J	.	.
.	.	8e/J	.	8cc#\J	.	.
=11	=11	=11	=11	=11	=11	=11
!	!	!	!	!LO:MO:mod=16qqee	!	!
.	.	.	.	8qqee/	.	.
4EE/	.	8B/L	.	8dd\L	.	.
.	.	8e/	.	16cc#\L	.	.
.	.	.	.	16b\JJ	.	.
4E\	.	8d/	.	8b\L	.	.
.	.	8e/	.	8b\J	.	.
4G#\	.	8d/	.	8b\L	.	.
.	.	8e/J	.	16cc#\L	.	.
.	.	.	.	16dd\JJ	.	.
=12	=12	=12	=12	=12	=12	=12
4AA/	.	8c#/L	.	16cc#\LL	.	.
.	.	.	.	16dd\J	.	.
.	.	8e/	.	[8ee\J	.	.
4E\	.	8c#/	.	16ee\LL]	.	.
.	.	.	.	16gg#\J	.	.
.	.	8e/	.	[8aa\J	.	.
4A\	.	8c#/	.	16aa\LL]	.	.
.	.	.	.	16ee\J	.	.
.	.	8e/J	.	8cc#\J	.	.
!	!	!	!	!LO:LB:g=original	!	!
=13	=13	=13	=13	=13	=13	=13
*	*	*	*	*xywh-#14:476,1147,3390,443	*	*
!	!	!	!	!	!	!LO:MO:null:mod=rf
8A\L	.	8f#/L	.	16dd#X\LL	.	.
!	!	!	!	!	!	!LO:MO:mod=!null:null
!	!	!	!	!	!	!LO:DY:t=rinf
!	!	!	!	!	!	!LO:MO:mod=.
.	.	.	.	16ee\J	.	rf
8B\	.	8d#X/	.	[8ff#\J	.	.
8A\	.	8f#/	.	16ff#\LL]	.	.
.	.	.	.	16gg#\J	.	.
8B\	.	8d#/	.	8aa\J	.	.
!	!	!	!	!LO:MO:mod=16qqbb	!	!
.	.	.	.	8qqbb/	.	.
8A\	.	8f#/	.	8aa\L	.	.
8B\J	.	8d#/J	.	16gg#\L	.	.
.	.	.	.	16ff#\JJ	.	.
!LO:LB:g=original	!	!	!	!	!	!
=14	=14	=14	=14	=14	=14	=14
*xywh-#67:399,2266,3361,362	*	*	*	*	*	*
8G#\L	.	2.e/	.	(16ee\LL	.	.
.	.	.	.	16dd#X\	.	.
8B\	.	.	.	16ee\)	.	.
.	.	.	.	16ff#`\JJ	.	.
8G#\	.	.	.	16gg#\LL	.	.
.	.	.	.	16ff#\	.	.
8B\	.	.	.	16gg#\	.	.
.	.	.	.	16aa\JJ	.	.
8G#\	.	.	.	(16bb\LL	.	.
.	.	.	.	16gg#\	.	.
8B\J	.	.	.	16ff#\	.	.
.	.	.	.	16ee\JJ)	.	.
=15	=15	=15	=15	=15	=15	=15
8A\L	.	8f#/L	.	16dd#X\LL	.	.
.	.	.	.	16ee\J	.	.
8B\	.	8d#X/	.	[8ff#\J	.	.
8A\	.	8f#/	.	16ff#\LL]	.	.
.	.	.	.	16gg#\J	.	.
8B\	.	8d#/	.	[8aa\J	.	.
8A\	.	8f#/	.	8aa\L]	.	.
8B\J	.	8d#/J	.	16gg#\L	.	.
.	.	.	.	16ff#\JJ	.	.
=16	=16	=16	=16	=16	=16	=16
4G#\	.	8e/L	.	(16ee\LL	.	p
.	.	.	.	16dd#X\	.	.
.	.	8b/	.	16ee\)	.	.
.	.	.	.	16gg#`\JJ	.	.
[2E\	.	8g#/	.	(16ee\LL	.	.
.	.	.	.	16dd#\	.	.
.	.	8b/	.	16ee\)	.	.
.	.	.	.	16gg#`\JJ	.	.
!	!	!	!	!	!	!LO:MO:mod=!null:null
!	!	!	!	!	!	!LO:HP:t=cres
.	.	8a/	.	16ff#\LL	.	<
.	.	.	.	16ee\	.	.
.	.	8b/J	.	16ff#\	.	.
.	.	.	.	16aa\JJ	.	.
=17	=17	=17	=17	=17	=17	=17
4E\]	.	4b 4g#/	.	(16gg#\LL	.	.
.	.	.	.	16bb\	.	.
.	.	.	.	16aa#X\	.	.
.	.	.	.	16bb\JJ)	.	.
!	!	!	!	!	!	!LO:DY:t=rinf:mod=%s
4r	.	4r	.	(16aa#\LL	.	rf
.	.	.	.	16bb\	.	.
.	.	.	.	16ccc#\	.	.
.	.	.	.	16bb\JJ	.	.
8BB/L	.	8f#/L	.	16aan\LL	.	.
.	.	.	.	16gg#\	.	.
8D#X/J	.	8b/J	.	16aa\	.	.
.	.	.	.	16ff#\JJ)	.	.
!	!	!LO:LB:g=original	!	!LO:LB:g=original	!	!
=18	=18	=18	=18	=18	=18	=18
*	*	*xywh-#46:518,1135,3400,409	*	*xywh-#14:469,1442,3381,446	*	*
4E\	.	8g#/L	.	(16ee\LL	.	p
.	.	.	.	16dd#X\	.	.
.	.	8b/	.	16ee\)	.	.
.	.	.	.	16gg#`\JJ	.	.
[2E\	.	8g#/	.	(16ee\LL	.	.
.	.	.	.	16dd#\	.	.
.	.	8b/	.	16ee\)	.	.
.	.	.	.	16gg#`\JJ	.	.
!	!	!	!	!	!	!LO:HP:t=cres
.	.	8a/	.	16ff#\LL	.	<
.	.	.	.	16ee\	.	.
.	.	8b/J	.	16ff#\	.	.
.	.	.	.	16aa\JJ	.	.
=19	=19	=19	=19	=19	=19	=19
4E\]	.	4b 4g#/	.	(16gg#\LL	.	.
.	.	.	.	16bb\	.	.
!	!	!	!	!	!	!LO:DY:t=rinf:mod=%s
.	.	.	.	16aa#X\	.	rf
.	.	.	.	16bb\JJ)	.	.
4r	.	4r	.	(16aa#\LL	.	.
.	.	.	.	16bb\	.	.
.	.	.	.	16ccc#\	.	.
.	.	.	.	16bb\JJ	.	.
8BB/L	.	8f#/L	.	16aan\LL	.	.
.	.	.	.	16gg#\	.	.
8D#X/J	.	8b/J	.	16aa\	.	.
.	.	.	.	16ff#\JJ)	.	.
=20	=20	=20	=20	=20	=20	=20
4E\	.	4b 4g#/	.	(16ee\LL	.	p
.	.	.	.	16dd#X\)	.	.
.	.	.	.	(16ff#\	.	.
.	.	.	.	16ee\JJ)	.	.
4r	.	4r	.	(16gg#\LL	.	.
.	.	.	.	16ff#\)	.	.
.	.	.	.	(16aa\	.	.
.	.	.	.	16gg#\JJ)	.	.
!	!	!	!	!	!	!LO:DY:t=rinf:mod=%s
8D#X/L	.	8f#/L	.	(16bb\LL	.	rf
.	.	.	.	16aa\	.	.
8BB/J	.	8a/J	.	16ff#\	.	.
.	.	.	.	16gg#\JJ)	.	.
=21	=21	=21	=21	=21	=21	=21
4E\	.	4g#/	.	(16ee\LL	.	p
.	.	.	.	16dd#X\)	.	.
.	.	.	.	(16ff#\	.	.
.	.	.	.	16ee\JJ)	.	.
4r	.	4r	.	(16gg#\LL	.	.
.	.	.	.	16ff#\)	.	.
.	.	.	.	(16aa\	.	.
.	.	.	.	16gg#\JJ)	.	.
!	!	!	!	!	!	!LO:DY:t=rinf:mod=%s
8d#X\L	.	8f#/L	.	(16bb\LL	.	rf
.	.	.	.	16aa\	.	.
8B\J	.	8a/J	.	16ff#\	.	.
.	.	.	.	16gg#\JJ)	.	.
!	!	!	!	!LO:LB:g=original	!	!
=22	=22	=22	=22	=22	=22	=22
*	*	*	*	*xywh-#14:460,1729,3400,427	*	*
4e\	.	4g#/	.	(16ee\LL	.	.
.	.	.	.	16dd#X\)	.	.
.	.	.	.	(16ff#\	.	.
.	.	.	.	16ee\JJ)	.	.
4r	.	4r	.	(16gg#\LL	.	.
.	.	.	.	16ff#\)	.	.
.	.	.	.	(16aa\	.	.
.	.	.	.	16gg#\JJ)	.	.
4r	.	4r	.	(16bb\LL	.	.
.	.	.	.	16aa\)	.	.
.	.	.	.	(16ccc#\	.	.
.	.	.	.	16bb\JJ)	.	.
=23	=23	=23	=23	=23	=23	=23
4E\	.	4b 4g#/	.	16ddd\LL	.	.
.	.	.	.	16ccc#\	.	.
.	.	.	.	16eee\	.	.
.	.	.	.	16ddd\JJ	.	.
4r	.	4r	.	16fff#\LL	.	.
.	.	.	.	16eee\	.	.
.	.	.	.	16eee\	.	.
.	.	.	.	16ddd\JJ	.	.
4r	.	4r	.	16ddd\LL	.	.
.	.	.	.	16ccc#\	.	.
.	.	.	.	16ccc#\	.	.
.	.	.	.	16bb\JJ	.	.
=24	=24	=24	=24	=24	=24	=24
4EE/	.	4g# 4B/	.	16bb\LL	.	.
.	.	.	.	16aa\	.	.
.	.	.	.	16aa\	.	.
.	.	.	.	16gg#\JJ	.	.
!	!	!	!	!	!	!LO:MO:null:mod=rf
4r	.	4r	.	16gg#\LL	.	.
!	!	!	!	!	!	!LO:MO:mod=!null:null
!	!	!	!	!	!	!LO:DY:t=rinf
!	!	!	!	!	!	!LO:MO:mod=>
.	.	.	.	16ddd\	.	rf >
.	.	.	.	16ddd\	.	.
.	.	.	.	16ccc#\JJ	.	.
4r	.	4r	.	16ccc#\LL	.	.
.	.	.	.	16bb\	.	.
.	.	.	.	16bb\	.	.
!	!	!	!	!	!	!LO:MO:null:mod=]]
.	.	.	.	16aa\JJ	.	.
=25	=25	=25	=25	=25	=25	=25
!LO:TX:a:t=1:mod=	!	!LO:TX:a:t=1:mod=	!	!	!	!
2.r	.	2.r	.	16aa\LL	.	.
!	!	!	!	!	!	!LO:MO:mod=.
.	.	.	.	16gg#\	.	]
.	.	.	.	16gg#\	.	.
.	.	.	.	16ff#\JJ	.	.
.	.	.	.	16ff#\LL	.	.
!	!	!	!	!	!	!LO:DY:t=rinf:mod=%s
.	.	.	.	16ee\	.	rf >
.	.	.	.	16ee\	.	.
.	.	.	.	16bb\JJ	.	.
.	.	.	.	16bb\LL	.	.
.	.	.	.	16aa\	.	.
.	.	.	.	16aa\	.	.
.	.	.	.	16gg#\JJ	.	]]
!	!	!	!	!LO:LB:g=original	!	!
=26	=26	=26	=26	=26	=26	=26
*	*	*	*	*xywh-#14:460,2018,3362,396	*	*
!	!	!	!	!	!	!LO:DY:t=rinf:mod=%s
4E\	.	4d 4B/	.	16gg#\LL	.	rf >
.	.	.	.	16ff#\	.	.
.	.	.	.	16ff#\	.	.
.	.	.	.	16ee\JJ	.	.
4r	.	4r	.	16ee\LL	.	.
.	.	.	.	16ffn\	.	.
.	.	.	.	16ff\	.	.
.	.	.	.	16ee\JJ	.	.
4r	.	4r	.	16ee\LL	.	.
.	.	.	.	16ff#X\	.	.
.	.	.	.	16ff#\	.	]
.	.	.	.	16ee\JJ	.	.
!LO:LB:g=original	!	!	!	!	!	!
=27	=27	=27	=27	=27	=27	=27
*xywh-#67:386,2556,3361,387	*	*	*	*	*	*
!	!	!	!	!LO:TX:b:i:t=dol:mod=dolce	!	!
4AA/	p	8c#/L	p	[4ee\	2	.
.	.	8e/	.	.	.	.
4A\	.	8c#/	.	16ee\LL]	.	.
.	.	.	.	16cc#`\	.	.
.	.	8e/	.	16a`\	0	.
.	.	.	.	16cc#`\JJ	.	.
4A\	.	8c#/	.	16ee\LL	.	.
.	.	.	.	16cc#\	.	.
.	.	8e/J	.	16a\	.	.
.	.	.	.	16cc#\JJ	.	.
=28	=28	=28	=28	=28	=28	=28
4AA/	.	8c#/L	.	8ee\	.	.
.	.	8e/	.	4aa\	.	.
4A\	.	8c#/	.	.	.	.
.	.	8e/	.	16gg#\LL	.	.
.	.	.	.	16aa\JJ	.	.
4A\	.	8d/	.	16bb\LL	.	.
.	.	.	.	16aa\	.	.
.	.	8f#/J	.	16gg#\	.	.
.	.	.	.	16ff#\JJ	.	.
=29	=29	=29	=29	=29	=29	=29
4AA/	.	8c#/L	.	[4ee\	.	.
.	.	8e/	.	.	.	.
4A\	.	8c#/	.	16ee\LL]	.	.
.	.	.	.	16cc#\	.	.
.	.	8e/	.	16a\	.	.
.	.	.	.	16cc#\JJ	.	.
4A\	.	8c#/	.	16ee\LL	.	.
.	.	.	.	16cc#\	.	.
.	.	8e/J	.	16a\	.	.
.	.	.	.	16cc#\JJ	.	.
=30	=30	=30	=30	=30	=30	=30
!	!	!	!	!LO:MO:mod=16qqee	!	!
.	.	.	.	8qqee/	.	.
4EE/	.	8B/L	.	8dd\L	.	.
.	.	8e/	.	16cc#\L	.	.
.	.	.	.	16b\JJ	.	.
4E\	.	8d/	.	8b\L	.	.
.	.	8e/	.	8b\J	.	.
4G#\	.	8d/	.	8b\L	.	.
.	.	8e/J	.	16cc#\L	.	.
.	.	.	.	16dd\JJ	.	.
!	!	!LO:LB:g=original	!	!LO:LB:g=original	!	!
=31	=31	=31	=31	=31	=31	=31
*	*	*xywh-#46:511,1453,3374,395	*	*xywh-#14:463,2263,3393,424	*	*
!	!	!	!	!LO:SIC:s=[4ee	!	!
4AA/	.	8c#/L	.	4ee\	.	.
.	.	8e/	.	.	.	.
!	!	!	!	!LO:SIC:s=16eeLL]	!	!
4A\	.	8c#/	.	16ee\LL	.	.
.	.	.	.	16cc#\	.	.
.	.	8e/	.	16a\	.	.
.	.	.	.	16cc#\JJ	.	.
4A\	.	8c#/	.	16ee\LL	.	.
.	.	.	.	16cc#\	.	.
.	.	8e/J	.	16a\	.	.
.	.	.	.	16cc#\JJ	.	.
=32	=32	=32	=32	=32	=32	=32
!	!LO:DY:t=rinf:mod=%s	!	!LO:MO:null:mod=rf	!	!	!
4AA/	rf	8c#/L	.	8ee\	.	.
!	!	!	!LO:MO:mod=!null:null	!	!	!
!	!	!	!LO:DY:t=rinf	!	!	!
!	!	!	!LO:MO:mod=.	!	!	!LO:DY:t=rinf:mod=%s
.	.	8e/	rf	4aa\	.	rf
4A\	.	8c#/	.	.	.	.
.	.	8e/	.	4aa\	.	.
4A\	.	8c#/	.	.	.	.
.	.	8e/J	.	16ccc#\LL	.	.
.	.	.	.	16ddd\JJ	.	.
=33	=33	=33	=33	=33	=33	=33
!	!LO:MO:null:mod=f	!	!	!LO:SIC:s=[4eee	!	!
4AA/	.	8c#/L	f	4eee\	.	.
.	.	8e/	.	.	.	.
!	!	!	!	!LO:SIC:s=16eeeLL]	!	!
4A\	.	8c#/	.	16eee\LL	.	f
.	.	.	.	16ccc#\	.	.
.	.	8e/	.	16aa\	.	.
.	.	.	.	16ccc#\JJ	.	.
!	!LO:MO:mod=.	!	!	!	!	!
4E\	f	8B/	.	16ddd\LL	.	.
.	.	.	.	16bb\	.	.
.	.	8d/J	.	16gg#\	.	.
.	.	.	.	16bb\JJ	.	.
=34	=34	=34	=34	=34	=34	=34
4AA/	.	8c#/L	.	(16aa\LL	2	.
.	.	.	.	16bb\	.	.
.	.	8e/	.	16aa\	.	.
.	.	.	.	16gg#\JJ	.	.
8r	.	8c#/	.	16aa\LL	.	.
.	.	.	.	16ee\	.	.
8E\	.	8e/J	.	16cc#\)	.	.
.	.	.	.	16ccc#\JJ	.	.
.	.	.	.	8qqbb/	.	.
4A\	.	4c#/	.	4aa\	.	.
=35	=35	=35	=35	=35	=35	=35
2F#\	.	8A/L	f	16ff#\LL	.	f
.	.	.	.	16gg#\	.	.
.	.	8c#/	.	16ff#\	.	.
.	.	.	.	16ee#X\JJ	.	.
.	.	8A/	.	16ff#\LL	.	.
.	.	.	.	16cc#\	.	.
!	!	!LO:SIC:s=8c#	!	!	!	!
.	.	8c#/J	.	16a\	.	.
.	.	.	.	16aa\JJ	.	.
!	!	!LO:SIC:s=8B	!	!	!	!
4E#X\	.	8B/L	.	16gg#\LL	.	.
.	.	.	.	16bb\	.	.
.	.	8dn/J	.	16aa\	.	.
.	.	.	.	16gg#\JJ	.	.
=36	=36	=36	=36	=36	=36	=36
4F#\	.	8A/L	.	16ff#\LL	.	.
.	.	.	.	16gg#\J	.	.
.	.	8c#/	.	[8aa\J	.	.
4r	.	8A/	.	16aa\LL]	.	.
.	.	.	.	16gg#\J	.	.
!	!	!LO:SIC:s=8c#	!	!LO:MO:mod=[8ff#J	!	!
.	.	8c#/J	.	8.ff#\J	.	.
!	!	!LO:SIC:s=8G#	!	!LO:MO:null:mod=16ff#LL]	!	!
4C#/	.	8G#/L	.	.	.	.
!	!	!	!	!LO:SIC:s=16ee#	!	!
.	.	.	.	16ee#X\LL	.	.
.	.	8B/J	.	16ff#\	.	.
.	.	.	.	16gg#\JJ	.	.
!	!	!	!	!LO:LB:g=original	!	!
=37	=37	=37	=37	=37	=37	=37
*	*	*	*	*xywh-#14:457,2581,3365,386	*	*
2F#\	.	8A/L	.	16ff#\LL	.	.
.	.	.	.	16gg#\	.	.
.	.	8c#/	.	16ff#\	.	.
.	.	.	.	16ee#X\JJ	.	.
.	.	8A/	.	16ff#\LL	.	.
.	.	.	.	16cc#\	.	.
!	!	!LO:SIC:s=8c#	!	!	!	!
.	.	8c#/J	.	16a\	.	.
.	.	.	.	16aa\JJ	.	.
!	!	!LO:SIC:s=8B	!	!	!	!
4E#X\	.	8B/L	.	16gg#\LL	.	.
.	.	.	.	16bb\	.	.
.	.	8d/J	.	16aa\	.	.
.	.	.	.	16gg#\JJ	.	.
=38	=38	=38	=38	=38	=38	=38
4F#\	.	8A/L	.	16ff#\LL	.	.
.	.	.	.	16gg#\J	.	.
!	!	!	!	!LO:SIC:s=[8aaJ	!	!
.	.	8c#/	.	8aa\J	.	.
!	!	!	!	!LO:SIC:s=16aaLL]	!	!
4r	.	8A/	.	16aa\LL	.	.
.	.	.	.	16gg#\J	.	.
!	!	!	!	!LO:MO:mod=[8ff#J	!	!
.	.	8c#/	.	8.ff#\J	.	.
!	!	!	!	!LO:MO:null:mod=16ff#LL]	!	!
4C#/	.	8G#/	.	.	.	.
!	!	!	!	!LO:SIC:s=16ee#	!	!
.	.	.	.	16ee#X\LL	.	.
.	.	8B/J	.	16ff#\	.	.
.	.	.	.	16gg#\JJ	.	.
=39	=39	=39	=39	=39	=39	=39
!	!LO:DY:t=rinf:mod=%s	!	!	!	!	!
2F#\	rf	8A/L	.	(16ff#\LL	.	.
.	.	.	.	16gg#\)	.	.
.	.	8c#/	.	16ff#`\	.	.
.	.	.	.	16ee#X`\JJ	.	.
.	.	8A/	.	(16ff#\LL	.	.
.	.	.	.	16cc#\	.	.
.	.	8c#/	.	16a\	.	.
.	.	.	.	16aa\JJ)	.	.
4En\	.	8A/	.	(16ff#\LL	.	.
.	.	.	.	16cc#\	.	.
.	.	8c#/J	.	16a\	.	.
.	.	.	.	16ccc#\JJ)	.	.
!	!	!LO:LB:g=original	!	!	!	!
=40	=40	=40	=40	=40	=40	=40
*	*	*xywh-#46:507,1700,3381,417	*	*	*	*
2D#X\	.	8A/	.	(16ccc#\LL	.	.
.	.	.	.	16bb\	.	.
.	.	4f#/	.	16aa#X\	.	.
.	.	.	.	16bb\JJ)	.	.
.	.	.	.	(16bb\LL	.	.
.	.	.	.	16aan\	.	.
.	.	8b\L	.	16gg#\	.	.
.	.	.	.	16aa\JJ)	.	.
4E\	.	8b\	.	(16aa\LL	.	.
.	.	.	.	16gg#\	.	.
!	!	!	!	!LO:SIC:s=16ff##	!	!
.	.	8b\J	.	16ff#X\	.	.
.	.	.	.	16gg#\JJ)	.	.
=41	=41	=41	=41	=41	=41	=41
4A\	.	[2a/	.	16ff#X\LL	.	.
.	.	.	.	16ee#X\	.	.
.	.	.	.	16gg#\	.	.
.	.	.	.	16ff#\JJ	.	.
4F#\	.	.	.	16aa\LL	.	.
.	.	.	.	16gg#\	.	.
.	.	.	.	16bb\	.	.
.	.	.	.	16aa\JJ	.	.
!	!	!	!	!LO:MO:mod=16qqddd	!	!
.	.	.	.	8qqddd/	.	.
4A\	.	8a/L]	.	8ccc#\L	.	.
.	.	8cc#/J	.	16aa\L	.	.
.	.	.	.	16ff#\JJ	.	.
!	!	!	!	!LO:LB:g=original	!	!
=42	=42	=42	=42	=42	=42	=42
*	*	*	*	*xywh-#14:444,2854,3377,393	*	*
4B\	.	(4g#/	.	4ee\	.	.
4BB/	.	8f#/)	.	(16dd#X\LL	.	.
.	.	.	.	16b\	.	.
.	.	8r	.	16cc#\	.	.
.	.	.	.	16dd#\JJ	.	.
4r	.	4r	.	16ee\LL	.	.
.	.	.	.	16ff#\	.	.
.	.	.	.	16gg#\	.	.
.	.	.	.	16aa\JJ)	.	.
=43	=43	=43	=43	=43	=43	=43
!LO:TX:a:t=1:mod=	!	!	!LO:DY:t=rinf:mod=%s	!LO:SIC:s=[4bb [4gg#	!	!
2.r	.	(16ee\LL	rf	[4bb 4gg#\	.	.
.	.	16dd#X\	.	.	.	.
.	.	16ee\	.	.	.	.
.	.	16dd#\JJ	.	.	.	.
!	!	!LO:TX:t=P:problem=mixed beam	!	!LO:SIC:s=8bbL] 8gg#]	!	!
.	.	8ee\L)	.	8bb]L 8gg#\	.	.
.	.	8e'/	.	(8gg# 8ee\	.	.
.	.	8d#X'/	.	8aa 8ff#\	.	.
.	.	8e'/J	.	8ccc#J 8aa\)	.	.
!LO:LB:g=original	!	!	!	!	!	!
=44	=44	=44	=44	=44	=44	=44
*xywh-#67:367,2850,3377,377	*	*	*	*	*	*
4r	.	4e/	.	8ccc#L 8aa\	.	.
.	.	.	.	8bbJ 8gg#\	.	.
(16E\LL	.	4r	.	4bb 4gg#\	.	.
16D#X\	.	.	.	.	.	.
16E\	.	.	.	.	.	.
16D#\JJ	.	.	.	.	.	.
!LO:TX:t=P:problem=mixed beam	!	!	!	!	!	!
8E\L)	.	4r	.	4r	.	.
8EE/J	.	.	.	.	.	.
=45	=45	=45	=45	=45	=45	=45
!LO:TX:a:t=1:mod=	!	!	!LO:DY:t=rinf:mod=%s	!LO:SIC:s=[4bb [4gg#	!	!
2.r	.	(16ee\LL	rf	[4bb 4gg#\	.	.
.	.	16dd#X\	.	.	.	.
.	.	16ee\	.	.	.	.
.	.	16dd#\JJ	.	.	.	.
!	!	!LO:TX:t=P:problem=mixed beam	!	!LO:SIC:s=8bbL] 8gg#]	!	!
.	.	8ee\L)	.	8bb]L 8gg#\	.	.
.	.	8e'/	.	(8gg# 8ee\	.	.
.	.	8d#X'/	.	8aa 8ff#\	.	.
.	.	8e'/J	.	8ccc#J 8aa\)	.	.
=46	=46	=46	=46	=46	=46	=46
4r	.	4e/	.	8ccc#L 8aa\	.	.
.	.	.	.	8bbJ 8gg#\	.	.
(16E\LL	.	4r	.	4bb 4gg#\	.	.
16D#X\	.	.	.	.	.	.
16E\	.	.	.	.	.	.
16D#\JJ	.	.	.	.	.	.
!LO:TX:t=P:problem=mixed beam	!	!	!	!	!	!
8E\L)	.	4r	.	4r	.	.
8EE/J	.	.	.	.	.	.
=47	=47	=47	=47	=47	=47	=47
!LO:TX:a:t=3:mod=	!	!	!	!	!	!
1.r	.	(16b\LL	p	4.aa 4.ff#\	.	p
.	.	16ccn\	.	.	.	.
.	.	16b\	.	.	.	.
.	.	16cc\JJ)	.	.	.	.
.	.	8b/L	.	.	.	.
.	.	8a/	.	(8ff#L 8dd#X\	.	.
.	.	8g#/	.	8gg# 8ee\	.	.
.	.	8e/J	.	8bbJ 8gg#\)	.	.
=48	=48	=48	=48	=48	=48	=48
*	*	*	*	*^	*	*
*	*	*	*	*	*xywh-#14:444,2854,3377,393	*	*
!	!	!	!	!	!LO:MO:mod=2ryy	!	!
.	.	(16b\LL	.	4.aa 4.ff#\	4ryy	.	.
.	.	16ccn\	.	.	.	.	.
.	.	16b\	.	.	.	.	.
.	.	16cc\JJ)	.	.	.	.	.
!	!	!	!	!	!LO:MO:mod=.	!	!
.	.	8b/L	.	.	8ryy	.	.
!	!	!	!	!LO:SIC:s=8ff# 8dd#L	!LO:MO:mod=.	!	!
.	.	8a/	.	8ff#/L	8dd#X\L	.	.
!	!	!	!	!LO:SIC:s=8gg# 8ee	!LO:MO:mod=4ryy	!	!
.	.	8g#/	.	8gg#/	8ee\J	.	.
!	!	!	!	!	!LO:MO:mod=.	!	!
.	.	8e/J	.	8eee/J	8r	.	.
*	*	*	*	*v	*v	*	*
!	!	!LO:LB:g=original	!	!	!	!
=49	=49	=49	=49	=49	=49	=49
*	*	*xywh-#46:496,1999,3463,380	*	*	*	*
!	!	!	!	!	!	!LO:MO:mod=!null:null
!	!	!	!	!	!	!LO:HP:t=cres
2.r	.	8a/L	.	(16bb#X\LL	.	<
.	.	.	.	16ccc#\)	.	.
.	.	8a/	.	16aa`\	.	.
.	.	.	.	16ff#`\JJ	.	.
.	.	8b/	.	(16aa#X\LL	.	.
!	!	!	!	!LO:SIC:s=16bb)	!	!
.	.	.	.	16bb#\)	.	.
.	.	8b/J	.	16gg#`\	.	.
.	.	.	.	16ee`\JJ	.	.
!	!	!	!	!LO:SIC:s=(16bbLL	!	!
.	.	8B/L	.	(16bb#\LL	.	.
.	.	.	.	16aan\	.	.
.	.	8B/J	.	16ff#\	.	.
.	.	.	.	16gg#\JJ)	.	.
!	!	!	!	!LO:LB:g=original	!	!
=50	=50	=50	=50	=50	=50	=50
*	*	*	*	*xywh-#14:441,3119,3384,424	*	*
4E\	f	4g# 4B/	f	8ee/L	.	f
.	.	.	.	(16e/L	.	.
.	.	.	.	16ee/JJ)	.	.
4r	.	4r	.	(16g#\LL	.	.
.	.	.	.	16gg#\)	.	.
.	.	.	.	(16b\	.	.
.	.	.	.	16bb\JJ)	.	.
4r	.	4r	.	(16cc#\LL	.	.
.	.	.	.	16eee\)	.	.
.	.	.	.	16ddd#X`\	.	.
.	.	.	.	16ccc#`\JJ	.	.
=51	=51	=51	=51	=51	=51	=51
4D#X\	.	4f#/	.	(16bb\LL	.	.
.	.	.	.	16aa#X\	.	.
.	.	.	.	16bb\)	.	.
.	.	.	.	16ccc#`\JJ	.	.
4D#\	.	4f#/	.	(16bb\LL	.	.
.	.	.	.	16aa#\	.	.
.	.	.	.	16bb\)	.	.
.	.	.	.	16ccc#`\JJ	.	.
4D#\	.	4f#/	.	(16bb\LL	.	.
.	.	.	.	16ccc#\)	.	.
.	.	.	.	(16aan\	.	.
.	.	.	.	16ff#\JJ)	.	.
=52	=52	=52	=52	=52	=52	=52
4E\	.	4e/	.	8gg#/L	.	.
!	!	!	!	!	!	!LO:MO:null:mod=p
.	.	.	.	(16e/L	.	.
!	!	!	!	!	!	!LO:DY:a:mod= 
.	.	.	.	16ee/JJ)	.	p
4r	.	4r	.	(16g#\LL	.	.
.	.	.	.	16gg#\)	.	.
.	.	.	.	(16b\	.	.
.	.	.	.	16bb\JJ	.	.
4r	.	4r	.	16ee\LL)	.	.
.	.	.	.	16eee\	.	.
.	.	.	.	16ddd#X\	.	.
.	.	.	.	16ccc#\JJ	.	.
=53	=53	=53	=53	=53	=53	=53
4d#X\	.	4f#/	.	16bb\LL	.	.
.	.	.	.	16aa#X\	.	.
.	.	.	.	16bb\	.	.
.	.	.	.	16ccc#\JJ	.	.
4d#\	.	4f#/	.	16bb\LL	.	.
.	.	.	.	16aa#\	.	.
.	.	.	.	16bb\	.	.
.	.	.	.	16ccc#\JJ	.	.
4d#\	.	4f#/	.	16bb\LL	.	.
.	.	.	.	16ccc#\	.	.
.	.	.	.	16aan\	.	.
.	.	.	.	16ff#\JJ	.	.
!	!	!	!	!LO:LB:g=original	!	!
=54	=54	=54	=54	=54	=54	=54
*	*	*	*	*xywh-#14:435,3392,3384,424	*	*
8e\	.	8.e/L	.	16gg#`\LL	.	.
.	.	.	.	(16ee\	.	.
8r	.	.	.	16eee\)	.	.
.	.	16f#/Jk	.	(16ddd#X\JJ	.	.
8.e\L	.	8.g#/L	.	16ccc#\LL)	.	.
.	.	.	.	(16cc#\	.	.
.	.	.	.	16ccc#\)	.	.
16d#X\Jk	.	16f#/Jk	.	(16bb\JJ	.	.
8.c#\L	.	8.e/L	.	16aa\LL)	.	.
.	.	.	.	(16a\	.	.
.	.	.	.	16aa\)	.	.
16B\Jk	.	16d#X/Jk	.	16gg#`\JJ	.	.
=55	=55	=55	=55	=55	=55	=55
8A\L	.	8c#/L	.	(16ff#\LL	.	.
.	.	.	.	16aa\)	.	.
8B\	.	8dn/	.	16gg#`\	.	.
.	.	.	.	16ee#X`\JJ	.	.
8A\	.	8c#/	.	16ff#\LL	.	.
.	.	.	.	16aa\	.	.
8B\J	.	8d/J	.	16gg#\	.	.
.	.	.	.	16ee#\JJ	.	.
4A\	.	4c#/	.	(16ff#\LL	.	.
.	.	.	.	16aa\	.	.
.	.	.	.	16bb\	.	.
.	.	.	.	16ccc#\JJ)	.	.
=56	=56	=56	=56	=56	=56	=56
!	!	!LO:TX:b:i:t= :mod=dolce	!	!	!	!
4B\	p	8e/L	.	[4bb\	.	.
!	!	!LO:TX:b:i:t=dol:mod=	!	!	!	!
.	.	8g#/J	.	.	.	.
4r	.	(16g#/LL	.	16bb\LL]	.	.
.	.	16f#/	.	16aa`\	.	.
.	.	16e/	.	16gg#`\	.	.
.	.	16f#/JJ)	.	16aa`\JJ	.	.
4r	.	8g#/L	.	8bb`\L	.	.
.	.	8g#/J	.	8eee`\J	.	.
=57	=57	=57	=57	=57	=57	=57
4B\	.	8e/L	.	[4bb\	.	.
.	.	8g#/J	.	.	.	.
4r	.	(16g#/LL	.	16bb\LL]	.	.
.	.	16f#/	.	16aa\	.	.
.	.	16e/	.	16gg#\	.	.
.	.	16f#/JJ)	.	16aa\JJ	.	.
4r	.	8g#/L	.	8bb\L	.	.
.	.	8g#/J	.	8eee\J	.	.
!LO:LB:g=original	!	!	!	!	!	!
=58	=58	=58	=58	=58	=58	=58
*xywh-#67:342,3137,3380,399	*	*	*	*	*	*
4BB/	.	4g#/	.	8bbT\L	.	.
.	.	.	.	8eee\J	.	.
4r	.	4r	.	8gg#t\L	.	.
.	.	.	.	8bb\J	.	.
4r	.	4r	.	8eeT\L	.	.
.	.	.	.	8gg#\J	.	.
!	!	!	!	!LO:LB:g=original	!	!
=59	=59	=59	=59	=59	=59	=59
*	*	*	*	*xywh-#14:432,3707,3415,393	*	*
!LO:TX:a:t=1:mod=	!	!LO:TX:a:t=1:mod=	!	!	!	!
2.r	.	2.r	.	16b\LL	.	.
.	.	.	.	16bb\	.	.
.	.	.	.	16aa\	.	.
.	.	.	.	16gg#\JJ	.	.
.	.	.	.	16ff#\LL	.	.
.	.	.	.	16ee\	.	.
.	.	.	.	16dd#X\	.	.
.	.	.	.	16cc#\JJ	.	.
.	.	.	.	(16b/LL	.	.
.	.	.	.	16a#X/)	.	.
.	.	.	.	16an`/	.	.
.	.	.	.	16g#`/JJ	.	.
!	!	!LO:LB:g=original	!	!	!	!
=60	=60	=60	=60	=60	=60	=60
*	*	*xywh-#46:500,2258,3404,420	*	*	*	*
(16B\LL	.	8e/L	p	2.f#T/	.	.
16A#X\	.	.	.	.	.	.
16B\	.	8e/J	.	.	.	.
!LO:SIC:s=16A#JJ	!	!	!	!	!	!
16A#\JJ)	.	.	.	.	.	.
!LO:SIC:s=8BL)	!	!	!	!	!	!
!LO:TX:t=P:problem=mixed beam	!	!	!	!	!	!
8B\L	.	8d#X/L	.	.	.	.
8BB/	.	8d#/	.	.	.	.
8B\	.	8d#/	.	.	.	.
8B\J	.	8d#/J	.	.	.	.
=61	=61	=61	=61	=61	=61	=61
!LO:TX:b:i:t=dol:mod=dolce	!	!LO:TX:b:i:t=Sotto voce:mod=sotto voce	!	!	!	!
(4.E\	.	(16e/LL	.	4e/	.	.
.	.	16g#/J)	.	.	.	.
.	.	8b`/J	.	.	.	.
.	.	(16b/LL	.	4r	.	.
.	.	16g#/J)	.	.	.	.
16G#\LL	.	8e`/J	.	.	.	.
16B\JJ)	.	.	.	.	.	.
(16A\LL	.	(16e/LL	.	4r	.	.
16G#\	.	16g#/J)	.	.	.	.
16F#\	.	8b`/J	.	.	.	.
16E\JJ)	.	.	.	.	.	.
=62	=62	=62	=62	=62	=62	=62
!	!	!LO:SIC:s=(16f#LL	!	!	!	!LO:MO:null:mod=rf
4D#X\	.	16f#/LL	.	4.b\	.	.
!	!	!LO:SIC:s=16aJ)	!	!	!	!
.	.	16a/J	.	.	.	.
!	!	!LO:SIC:s=8b`J	!	!	!	!
.	.	8b/J	.	.	.	.
!	!	!LO:SIC:s=(16bLL	!	!	!	!
4r	.	16b/LL	.	.	.	.
!	!	!LO:SIC:s=16aJ)	!	!	!	!
.	.	16a/J	.	.	.	.
!	!	!LO:SIC:s=8f#`J	!	!	!	!LO:DY:a:t=rinf:mod= 
.	.	8f#/J	.	16dd#X\LL	.	rf
.	.	.	.	16ff#\JJ	.	.
!	!	!LO:SIC:s=(16f#LL	!	!	!	!
4D#\	.	16f#/LL	.	(16bb\LL	.	.
!	!	!LO:SIC:s=16aJ)	!	!	!	!
.	.	16a/J	.	16aa\	.	.
!	!	!LO:SIC:s=8b`J	!	!	!	!
.	.	8b/J	.	16gg#\	.	.
.	.	.	.	16ff#\JJ)	.	.
=63	=63	=63	=63	=63	=63	=63
!	!	!LO:SIC:s=(16eLL	!	!	!	!
(4.E\	.	16e/LL	.	4ee\	.	.
!	!	!LO:SIC:s=16g#J)	!	!	!	!
.	.	16g#/J	.	.	.	.
!	!	!LO:SIC:s=8b`J	!	!	!	!
.	.	8b/J	.	.	.	.
!	!	!LO:SIC:s=(16bLL	!	!	!	!
.	.	16b/LL	.	4r	.	.
!	!	!LO:SIC:s=16g#J)	!	!	!	!
.	.	16g#/J	.	.	.	.
!	!	!LO:SIC:s=8e`J	!	!	!	!
16G#\LL	.	8e/J	.	.	.	.
16B\JJ)	.	.	.	.	.	.
!	!	!LO:SIC:s=(16eLL	!	!	!	!
(16A\LL	.	16e/LL	.	4r	.	.
!	!	!LO:SIC:s=16g#J)	!	!	!	!
16G#\	.	16g#/J	.	.	.	.
!	!	!LO:SIC:s=8b`J	!	!	!	!
16F#\	.	8b/J	.	.	.	.
16E\JJ)	.	.	.	.	.	.
=64	=64	=64	=64	=64	=64	=64
!	!	!LO:SIC:s=(16f#LL	!	!	!	!
4D#X\	.	16f#/LL	.	4.b\	.	.
!	!	!LO:SIC:s=16aJ)	!	!	!	!
.	.	16a/J	.	.	.	.
!	!	!LO:SIC:s=8b`J	!	!	!	!
.	.	8b/J	.	.	.	.
!	!	!LO:SIC:s=(16bLL	!	!	!	!
4r	.	16b/LL	.	.	.	.
!	!	!LO:SIC:s=16aJ)	!	!	!	!
.	.	16a/J	.	.	.	.
!	!	!LO:SIC:s=8f#`J	!	!	!	!
.	.	8f#/J	.	16dd#X\LL	.	.
.	.	.	.	16ff#\JJ	.	.
!	!	!LO:SIC:s=(16f#LL	!	!	!	!
4D#\	.	16f#/LL	.	16bb\LL	.	.
!	!	!LO:SIC:s=16aJ)	!	!	!	!
.	.	16a/J	.	16aa\	.	.
!	!	!LO:SIC:s=8b`J	!	!	!	!
.	.	8b/J	.	16gg#\	.	.
.	.	.	.	16ff#\JJ	.	.
=65	=65	=65	=65	=65	=65	=65
4E\	.	4g#/	.	(16ee\LL	.	p
.	.	.	.	16gg#\J)	.	.
.	.	.	.	8bb`\J	.	.
4r	.	4r	.	(16bb\LL	.	.
.	.	.	.	16gg#\J)	.	.
.	.	.	.	8ee`\J	.	.
4r	.	4r	.	(16ee\LL	.	.
.	.	.	.	16gg#\J)	.	.
.	.	.	.	8bb`\J	.	.
=66	=66	=66	=66	=66	=66	=66
!LO:TX:a:t=8:mod=	!	!	!	!LO:SIC:s=(16gg#LL	!	!
0.r	.	(16e/LL	.	16gg#\LL	.	.
!	!	!	!	!LO:SIC:s=16bbJ)	!	!
.	.	16g#/J)	.	16bb\J	.	.
!	!	!	!	!LO:SIC:s=8ddd`J	!	!
.	.	8b`/J	.	8dddn\J	.	.
!	!	!	!	!LO:SIC:s=(16dddLL	!	!
.	.	(16b/LL	.	16ddd\LL	.	.
!	!	!	!	!LO:SIC:s=16bbJ)	!	!
.	.	16g#/J)	.	16bb\J	.	.
!	!	!	!	!LO:SIC:s=8gg#`J	!	!
.	.	8e`/J	.	8gg#\J	.	.
!	!	!	!	!	!	!LO:MO:mod=!null:null
!	!	!	!	!LO:SIC:s=(16gg#LL	!	!LO:HP:t=cres
.	.	(16e/LL	.	16gg#\LL	.	<
!	!	!	!	!LO:SIC:s=16bbJ)	!	!
.	.	16g#/J)	.	16bb\J	.	.
!	!	!	!	!LO:SIC:s=8ddd`J	!	!
.	.	8b`/J	.	8ddd\J	.	.
!	!	!	!	!LO:LB:g=original	!	!
=67	=67	=67	=67	=67	=67	=67
*	*	*	*	*xywh-#14:429,3958,3377,456	*	*
!	!	!	!	!LO:SIC:s=(16bbLL	!	!
.	.	(16g#\LL	.	16bb\LL	.	.
!	!	!	!	!LO:SIC:s=16dddJ)	!	!
.	.	16b\J)	.	16ddd\J	.	.
!	!	!	!	!LO:SIC:s=8fff#`J	!	!
.	.	8dd`\J	.	8fff#\J	.	.
!	!	!	!	!LO:SIC:s=(16fff#LL	!	!
.	.	(16dd\LL	.	16fff#\LL	.	.
!	!	!	!	!LO:SIC:s=16dddJ)	!	!
.	.	16b\J)	.	16ddd\J	.	.
!	!	!	!	!LO:SIC:s=8bb`J	!	!
.	.	8g#`\J	.	8bb\J	.	.
!	!	!	!	!LO:SIC:s=(16bbLL	!	!
.	.	(16g#\LL	.	16bb\LL	.	.
!	!	!	!	!LO:SIC:s=16dddJ)	!	!
.	.	16b\J)	.	16ddd\J	.	.
!	!	!	!	!LO:SIC:s=8fff#`J	!	!
.	.	8dd`\J	.	8fff#\J	.	.
!	!	!LO:LB:g=original	!	!	!	!
=68	=68	=68	=68	=68	=68	=68
*	*	*xywh-#46:489,2560,3396,383	*	*	*	*
!	!	!	!	!	!	!LO:DY:t=rinf:mod=%s
.	.	(16dd\LL	.	(16fff#\LL	.	rf
.	.	16b\	.	16ddd\)	.	.
.	.	16dd\	.	(16fff#\	.	.
.	.	16b\JJ)	.	16ddd\JJ)	.	.
.	.	(16dd\LL	.	(16fff#\LL	.	.
.	.	16b\	.	16ddd\)	.	.
.	.	16dd\	.	(16fff#\	.	.
.	.	16b\JJ)	.	16ddd\JJ)	.	.
.	.	(16dd\LL	.	(16fff#\LL	.	.
.	.	16b\	.	16ddd\)	.	.
.	.	16dd\	.	(16fff#\	.	.
.	.	16b\JJ)	.	16ddd\JJ)	.	.
=69	=69	=69	=69	=69	=69	=69
.	.	8dd\	.	16fff#\LL	.	>
.	.	.	.	16ddd\	.	.
.	.	4ee\	.	16ccc#\	.	.
.	.	.	.	16eee\JJ	.	.
.	.	.	.	16ddd\LL	.	.
.	.	.	.	16bb\	.	.
.	.	8ee\	.	16aa\	.	.
.	.	.	.	16ccc#\JJ	.	.
.	.	4e/	.	16bb\LL	.	.
.	.	.	.	16gg#\	.	.
!	!	!	!	!	!	!LO:MO:mod=.
.	.	.	.	16ff#\	.	]
!	!	!	!	!	!	!LO:MO:null:mod=]]
.	.	.	.	16aa\JJ	.	.
=70	=70	=70	=70	=70	=70	=70
!	!	!LO:TX:a:t=1:mod=	!	!	!	!
0.r	.	2.r	.	16gg#\LL	.	.
.	.	.	.	16ee\	.	.
.	.	.	.	16dd#X\	.	<
.	.	.	.	16ff#\JJ	.	.
.	.	.	.	16ee\LL	.	.
.	.	.	.	16gg#\	.	.
.	.	.	.	16gg#\	.	.
.	.	.	.	16bb\JJ	.	.
.	.	.	.	16bb\LL	.	.
.	.	.	.	16ddd\	.	.
!	!	!	!	!	!	!LO:MO:mod=.
.	.	.	.	16ddd\	.	[
!	!	!	!	!	!	!LO:MO:null:mod=[[
.	.	.	.	16fff#\JJ	.	.
!	!	!	!	!LO:LB:g=original	!	!
=71	=71	=71	=71	=71	=71	=71
*	*	*	*	*xywh-#14:422,4243,3415,446	*	*
.	.	8r	.	16fff#\LL	.	.
.	.	.	.	16ddd\	.	.
.	.	8e/	.	16ccc#\	.	.
.	.	.	.	16eee\JJ	.	.
.	.	8ee\L	.	16ddd\LL	.	.
.	.	.	.	16bb\	.	.
.	.	8ee\J	.	16aa\	.	.
.	.	.	.	16ccc#\JJ	.	.
.	.	4ee\	.	16bb\LL	.	.
.	.	.	.	16gg#\	.	.
.	.	.	.	16ff#\	.	.
.	.	.	.	16aa\JJ	.	.
=72	=72	=72	=72	=72	=72	=72
.	.	8e'/L	p	16gg#\LL	.	>
.	.	.	.	16ee\	.	.
.	.	8f#'/	.	16aa\	.	.
.	.	.	.	16ee\JJ	.	.
.	.	8g#'/	.	16bb\LL	.	.
.	.	.	.	16ee\	.	.
.	.	8a'/	.	16ccc#\	.	.
.	.	.	.	16ee\JJ	.	.
.	.	8b'/	.	16ddd\LL	.	.
.	.	.	.	16ee\	.	.
.	.	8a'/J	.	16ccc#\	.	.
.	.	.	.	16ee\JJ	.	.
=73	=73	=73	=73	=73	=73	=73
.	.	8g#'/L	.	16bb\LL	.	.
.	.	.	.	16ee\	.	.
.	.	8a'/	.	16ccc#\	.	.
.	.	.	.	16ee\JJ	.	.
.	.	8g#'/	.	16bb\LL	.	.
.	.	.	.	16ee\	.	.
.	.	8f#'/	.	16aa\	.	.
.	.	.	.	16ee\JJ	.	.
.	.	8e'/	.	16gg#\LL	.	.
.	.	.	.	16ee\	.	.
.	.	8dn/J	.	16ff#\	.	.
.	.	.	.	16ee\JJ	.	]]
=74	=74	=74	=74	=74	=74	=74
[2.AA/	p	8e`/L	.	[4ee\	.	p
.	.	(16e/L	.	.	.	.
.	.	16c#/JJ)	.	.	.	.
.	.	8e`/L	.	16ee\LL]	.	.
.	.	.	.	16cc#`\	.	.
.	.	(16e/L	.	16a`\	.	.
.	.	16c#/JJ)	.	16cc#`\JJ	.	.
.	.	8e`/L	.	16ee\LL	.	.
.	.	.	.	16cc#\	.	.
.	.	(16e/L	.	16a\	.	.
.	.	16c#/JJ)	.	16cc#\JJ	.	.
=75	=75	=75	=75	=75	=75	=75
2.AA/_	.	8e`/L	.	8ee\	.	.
.	.	(16e/L	.	4aa\	.	.
.	.	16c#/JJ)	.	.	.	.
.	.	8e`/L	.	.	.	.
.	.	(16e/L	.	16gg#\LL	.	.
.	.	16c#/JJ)	.	16aa\JJ	.	.
.	.	8f#`/L	.	(16bb\LL	.	.
.	.	.	.	16aa\)	.	.
.	.	(16f#/L	.	16gg#`\	.	.
.	.	16d/JJ)	.	16ff#`\JJ	.	.
!	!	!	!	!LO:LB:g=original	!	!
=76	=76	=76	=76	=76	=76	=76
*	*	*	*	*xywh-#14:410,4559,3403,465	*	*
2.AA/]	.	8e/L	.	[4ee\	.	.
.	.	16e/L	.	.	.	.
.	.	16c#/JJ	.	.	.	.
.	.	8e/L	.	16ee\LL]	.	.
.	.	.	.	16cc#\	.	.
.	.	16e/L	.	16a\	.	.
.	.	16c#/JJ	.	16cc#\JJ	.	.
.	.	8e/L	.	16ee\LL	.	.
.	.	.	.	16cc#\	.	.
.	.	16e/L	.	16a\	.	.
.	.	16c#/JJ	.	16cc#\JJ	.	.
!	!	!LO:LB:g=original	!	!	!	!
=77	=77	=77	=77	=77	=77	=77
*	*	*xywh-#46:489,2826,3393,420	*	*	*	*
!	!	!	!	!LO:MO:mod=16qqee	!	!
.	.	.	.	8qqee/	.	.
4GG#/	.	8e/L	.	8dd\L	.	.
.	.	16e/L	.	16cc#\L	.	.
.	.	16B/JJ	.	16b\JJ	.	.
4EE/	.	8d/L	.	8b\L	.	.
.	.	16d/L	.	8b\J	.	.
.	.	16B/JJ	.	.	.	.
4GG#/	.	8e/L	.	8b\L	.	.
.	.	16e/L	.	16cc#\L	.	.
.	.	16B/JJ	.	16dd\JJ	.	.
!LO:LB:g=original	!	!	!	!	!	!
=78	=78	=78	=78	=78	=78	=78
*xywh-#67:330,3399,3392,418	*	*	*	*	*	*
[2.AA/	.	8e/L	.	[4ee\	.	.
.	.	16e/L	.	.	.	.
.	.	16c#/JJ	.	.	.	.
.	.	8e/L	.	16ee\LL]	.	.
.	.	.	.	16cc#\	.	.
.	.	16e/L	.	16a\	.	.
.	.	16c#/JJ	.	16cc#\JJ	.	.
.	.	8e/L	.	16ee\LL	.	.
.	.	.	.	16cc#\	.	.
.	.	16e/L	.	16a\	.	.
.	.	16c#/JJ	.	16cc#\JJ	.	.
=79	=79	=79	=79	=79	=79	=79
2.AA/_	.	8e/L	.	8ee\	.	.
.	.	16e/L	.	4aa\	.	.
.	.	16c#/JJ	.	.	.	.
.	.	8e/L	.	.	.	.
.	.	16e/L	.	16gg#\LL	.	.
.	.	16c#/JJ	.	16aa\JJ	.	.
.	.	8f#/L	.	(16bb\LL	.	.
.	.	.	.	16aa\)	.	.
.	.	16f#/L	.	16gg#`\	.	.
.	.	16d/JJ	.	16ff#`\JJ	.	.
=80	=80	=80	=80	=80	=80	=80
2AA/]	.	8e/L	.	[4ee\	.	.
.	.	16e/L	.	.	.	.
.	.	16c#/JJ	.	.	.	.
.	.	8e/L	.	16ee\LL]	.	.
.	.	.	.	16cc#\	.	.
.	.	16e/L	.	16a\	.	.
.	.	16c#/JJ	.	16cc#\JJ	.	.
4E\	.	8B/L	.	16dd\LL	.	.
.	.	.	.	16b\	.	.
.	.	16B/L	.	16g#\	.	.
.	.	16d/JJ	.	16b\JJ	.	.
=81	=81	=81	=81	=81	=81	=81
*tremolo	*	*	*	*	*	*
!	!LO:DY:t=rinf:mod=%s	!	!LO:DY:t=rinf:mod=%s	!	!	!LO:DY:t=rinf:mod=%s
8F#\L	rf	8B/L	rf	4.a/	.	rf
8F#\	.	8d#X/	.	.	.	.
8F#\	.	8B/	.	.	.	.
8F#\	.	8d#/	.	16cc#/LL	.	.
.	.	.	.	16b/JJ	.	.
8F#\	.	8B/	.	16a/LL	.	.
.	.	.	.	16g#/	.	.
8F#\J	.	8d#/J	.	16f#/	.	.
.	.	.	.	16e/JJ	.	.
!	!	!	!	!LO:PB:g=original	!	!
=82	=82	=82	=82	=82	=82	=82
*	*	*	*	*xywh-#15:340,504,3493,537	*	*
8F#\L	.	8B/L	.	8d#X/	.	.
8F#\	.	8f#/	.	4a/	.	.
8F#\	.	8B/	.	.	.	.
8F#\	.	8f#/	.	16cc#/LL	.	.
.	.	.	.	16b/JJ	.	.
8F#\	.	8B/	.	16a/LL	.	.
.	.	.	.	16g#/	.	.
8F#\J	.	8f#/J	.	16f#/	.	.
.	.	.	.	16e/JJ	.	.
*Xtremolo	*	*	*	*	*	*
=83	=83	=83	=83	=83	=83	=83
4G#\	f	4b 4e/	f	16dn/LL	.	f
.	.	.	.	16e/	.	.
.	.	.	.	16g#/	.	.
.	.	.	.	16b/JJ	.	.
4G#\	.	4b 4e/	.	16dd\LL	.	.
.	.	.	.	16ee\	.	.
.	.	.	.	16gg#\	.	.
.	.	.	.	16bb\JJ	.	.
4G#\	.	4b 4e/	.	16ddd\LL	.	.
.	.	.	.	16bb\	.	.
.	.	.	.	16ddd\	.	.
.	.	.	.	(16bb\JJ	.	.
=84	=84	=84	=84	=84	=84	=84
4G#\	.	4b 4e/	.	16ddd\LL)	.	.
.	.	.	.	16bb\	.	.
.	.	.	.	16gg#\	.	.
.	.	.	.	16ee\JJ	.	.
4r	.	4r	.	16dd\LL	.	.
.	.	.	.	16b\	.	.
.	.	.	.	16g#\	.	.
.	.	.	.	16e\JJ	.	.
!LO:SIC:s=8EE;	!	!	!	!LO:SIC:s=8d;	!	!
8EE;</	.	8g# 8B;/	.	8d;</	.	.
8r	.	8r	.	8r	.	.
=85	=85	=85	=85	=85	=85	=85
!	!	!	!	!LO:TX:a:i:t= :mod=flautato	!	!
8r	.	4e 4c#/	.	8cc#L 8a\	.	.
!	!	!	!	!LO:TX:a:t=flautato:mod=	!	!
8AA/L	p	.	.	16eeL 16cc#\	.	.
.	.	.	.	16cc#JJ 16a\	.	.
8C#/	.	4r	.	16eeLL 16cc#\	.	.
.	.	.	.	16dd 16b\	.	.
8E/J	.	.	.	16cc# 16a\	.	.
.	.	.	.	16ddJJ 16b\	.	.
4A\	.	4r	.	16eeLL 16cc#\	.	.
.	.	.	.	16cc# 16a\	.	.
.	.	.	.	16ee 16cc#\	.	.
.	.	.	.	16cc#JJ 16a\	.	.
!	!	!LO:LB:g=original	!	!LO:LB:g=original	!	!
=86	=86	=86	=86	=86	=86	=86
*	*	*xywh-#46:489,3107,3404,439	*	*xywh-#15:352,914,3459,372	*	*
!LO:TX:a:t=1:mod=	!	!	!	!	!	!
2.r	.	8r	.	16ddLL 16b\	.	.
.	.	.	.	16gg# 16ee\	.	.
.	.	8ee\L	p	16bb 16gg#\	.	.
.	.	.	.	16aaJJ 16ff#\	.	.
.	.	8b\	.	16gg#LL 16ee\	.	.
.	.	.	.	16aa 16ff#\	.	.
.	.	8g#\J	.	16bb 16gg#\	.	.
.	.	.	.	16aaJJ 16ff#\	.	.
.	.	4e/	.	16gg#LL 16ee\	.	.
.	.	.	.	16ff# 16dd\	.	.
.	.	.	.	16ee 16cc#\	.	.
.	.	.	.	16ddJJ 16b\	.	.
=87	=87	=87	=87	=87	=87	=87
!	!	!LO:TX:a:t=1:mod=	!	!	!	!
8r	.	2.r	.	8cc#L 8a\	.	.
8AA/L	.	.	.	16eeL 16cc#\	.	.
.	.	.	.	16cc#JJ 16a\	.	.
8C#/	.	.	.	16eeLL 16cc#\	.	.
.	.	.	.	16dd 16b\	.	.
8E/J	.	.	.	16cc# 16a\	.	.
.	.	.	.	16ddJJ 16b\	.	.
4A\	.	.	.	16eeLL 16cc#\	.	.
.	.	.	.	16cc# 16a\	.	.
.	.	.	.	16ee 16cc#\	.	.
.	.	.	.	16cc#JJ 16a\	.	.
=88	=88	=88	=88	=88	=88	=88
!LO:TX:a:t=1:mod=	!	!	!	!	!	!
2.r	.	8r	.	16ddLL 16b\	.	.
.	.	.	.	16gg# 16ee\	.	.
.	.	8ee\L	.	16bb 16gg#\	.	.
.	.	.	.	16aaJJ 16ff#\	.	.
.	.	8b\	.	16gg#LL 16ee\	.	.
.	.	.	.	16aa 16ff#\	.	.
.	.	8g#\J	.	16bb 16gg#\	.	.
.	.	.	.	16aaJJ 16ff#\	.	.
.	.	4e/	.	16gg#LL 16ee\	.	.
.	.	.	.	16ff# 16dd\	.	.
.	.	.	.	16ee 16cc#\	.	.
.	.	.	.	16ddJJ 16b\	.	.
=89	=89	=89	=89	=89	=89	=89
4A\	.	4e 4c#/	.	16cc#LL 16a/	.	.
.	.	.	.	16e 16c#/	.	.
.	.	.	.	16f# 16d/	.	.
.	.	.	.	16g#JJ 16e/	.	.
4r	.	4r	.	16aLL 16f#/	.	.
.	.	.	.	16b 16g#/	.	.
.	.	.	.	16cc# 16a/	.	.
.	.	.	.	16ddJJ 16b/	.	.
4r	.	4r	.	16eeLL 16cc#\	.	.
.	.	.	.	16ff# 16dd\	.	.
.	.	.	.	16gg# 16ee\	.	.
.	.	.	.	16aaJJ 16ff#\	.	.
!	!	!	!	!LO:LB:g=original	!	!
=90	=90	=90	=90	=90	=90	=90
*	*	*	*	*xywh-#15:356,1169,3429,391	*	*
2E\	.	4e 4B/	.	16bbLL 16gg#\	.	.
.	.	.	.	16ccc# 16aa\	.	.
.	.	.	.	16ddd 16bb\	.	.
.	.	.	.	16dddJJ 16bb\	.	.
.	.	4r	.	16dddLL 16bb\	.	.
.	.	.	.	16ccc# 16aa\	.	.
.	.	.	.	16ccc# 16aa\	.	.
.	.	.	.	16ccc#JJ 16aa\	.	.
4G#\	.	4e 4d/	.	16dddLL 16bb\	.	.
.	.	.	.	16bb 16ee\	.	.
.	.	.	.	16bb 16ee\	.	.
.	.	.	.	16bbJJ 16ee\	.	.
=91	=91	=91	=91	=91	=91	=91
4A\	.	4e 4c#/	.	16r	.	.
.	.	.	.	16eLL 16c#/	.	.
.	.	.	.	16f# 16d/	.	.
.	.	.	.	16g#JJ 16e/	.	.
4r	.	4r	.	16aLL 16f#/	.	.
.	.	.	.	16b 16g#/	.	.
.	.	.	.	16cc# 16a/	.	.
.	.	.	.	16ddJJ 16b/	.	.
4r	.	4r	.	16eeLL 16cc#\	.	.
.	.	.	.	16ff# 16dd\	.	.
.	.	.	.	16gg# 16ee\	.	.
.	.	.	.	16aaJJ 16ff#\	.	.
=92	=92	=92	=92	=92	=92	=92
2E\	.	4e 4B/	.	16bbLL 16gg#\	.	.
.	.	.	.	16ccc# 16aa\	.	.
.	.	.	.	16ddd 16bb\	.	.
.	.	.	.	16dddJJ 16bb\	.	.
.	.	4r	.	16dddLL 16bb\	.	.
.	.	.	.	16ccc# 16aa\	.	.
.	.	.	.	16ccc# 16aa\	.	.
.	.	.	.	16ccc#JJ 16aa\	.	.
4G#\	.	4e 4d/	.	16dddLL 16bb\	.	.
.	.	.	.	16bb 16ee\	.	.
.	.	.	.	16bb 16ee\	.	.
.	.	.	.	16bbJJ 16ee\	.	.
=93	=93	=93	=93	=93	=93	=93
2.A\	.	4e 4c#/	.	16ccc#LL 16aa\	.	.
.	.	.	.	(16ccc# 16aa\	.	.
.	.	.	.	16ddd 16bb\	.	.
.	.	.	.	16ccc#JJ 16aa\)	.	.
.	.	4r	.	16bbLL 16gg#\	.	.
!	!	!	!	!LO:SIC:s=(16bb 16gg#	!	!
.	.	.	.	16bb 16gg#\	.	.
.	.	.	.	16ccc# 16aa\	.	.
!	!	!	!	!LO:SIC:s=16bbJJ 16gg#)	!	!
.	.	.	.	16bbJJ 16gg#\	.	.
.	.	4r	.	16aaLL 16ff#\	.	.
!	!	!	!	!LO:SIC:s=(16aa 16ff#	!	!
.	.	.	.	16aa 16ff#\	.	.
.	.	.	.	16bb 16gg#\	.	.
!	!	!	!	!LO:SIC:s=16aaJJ 16ff#)	!	!
.	.	.	.	16aaJJ 16ff#\	.	.
!	!	!	!	!LO:LB:g=original	!	!
=94	=94	=94	=94	=94	=94	=94
*	*	*	*	*xywh-#15:352,1459,3407,436	*	*
!	!	!LO:TX:a:t=1:mod=	!	!	!	!
2.A\	.	2.r	.	16gg#LL 16ee\	.	.
!	!	!	!	!LO:SIC:s=(16gg# 16ee	!	!
.	.	.	.	16gg# 16ee\	.	.
.	.	.	.	16aa 16ff#\	.	.
!	!	!	!	!LO:SIC:s=16gg#JJ 16ee)	!	!
.	.	.	.	16gg#JJ 16ee\	.	.
.	.	.	.	16ff#LL 16dd\	.	.
!	!	!	!	!LO:SIC:s=(16ff# 16dd	!	!
.	.	.	.	16ff# 16dd\	.	.
.	.	.	.	16gg# 16ee\	.	.
!	!	!	!	!LO:SIC:s=(16ff#JJ 16dd)	!	!
.	.	.	.	16ff#JJ 16dd\	.	.
.	.	.	.	16eeLL 16cc#\	.	.
.	.	.	.	16ff# 16dd\	.	.
.	.	.	.	16gg# 16b\	.	.
.	.	.	.	16aaJJ 16cc#\	.	.
!LO:LB:g=original	!	!	!	!	!	!
=95	=95	=95	=95	=95	=95	=95
*xywh-#67:361,3702,3389,427	*	*	*	*	*	*
4r	.	4r	.	16gg#LL 16ee\	.	.
.	.	.	.	16ff# 16dd\	.	.
.	.	.	.	16ee 16cc#\	.	.
.	.	.	.	16ddJJ 16b\	.	.
4EE/	pp	4r	.	4cc# 4a;\	.	.
4E;\	.	4e 4d;/	pp	4b 4g#;\	.	.
.	.	.	.	8qqee 8qqcc#/	.	.
=96	=96	=96	=96	=96	=96	=96
!	!	!	!	!LO:TX:b:i:t=Sotto voce:mod=sotto voce	!	!
4AA/	.	8c#/L	p	4ee 4cc#\	.	.
.	.	8e/	.	.	.	.
4A\	.	8c#/	.	(16eeLL 16cc#\	.	.
.	.	.	.	16dd 16b\)	.	.
.	.	8e/	.	16cc# 16a`\	.	.
.	.	.	.	16ddJJ 16b`\	.	.
4A\	.	8c#/	.	(16eeLL 16cc#\	.	.
.	.	.	.	16dd 16b\)	.	.
.	.	8e/J	.	16cc# 16a`\	.	.
.	.	.	.	16ddJJ 16b`\	.	.
=97	=97	=97	=97	=97	=97	=97
4AA/	.	8c#/L	.	8ee 8cc#\	.	.
.	.	8e/	.	4aa 4ee\	.	.
4A\	.	8c#/	.	.	.	.
.	.	8e/	.	16gg#LL 16ee\	.	.
.	.	.	.	16aaJJ 16ff#\	.	.
4A\	.	8d/	.	(16bbLL 16gg#\	.	.
.	.	.	.	16aa 16ff#\)	.	.
.	.	8f#/J	.	16gg# 16ee`\	.	.
.	.	.	.	16ff#JJ 16dd`\	.	.
=98	=98	=98	=98	=98	=98	=98
!	!	!	!	!LO:SIC:s=[4ee [4cc#	!	!
4AA/	.	8c#/L	.	[4ee 4cc#\	.	.
.	.	8e/	.	.	.	.
!	!	!	!	!LO:SIC:s=16eeLL] 16cc#]	!	!
4A\	.	8c#/	.	16ee]LL 16cc#\	.	.
.	.	.	.	(16dd 16b\	.	.
.	.	8e/	.	16cc# 16a\	.	.
.	.	.	.	16ddJJ 16b\)	.	.
4A\	.	8c#/	.	(16eeLL 16cc#\	.	.
.	.	.	.	16dd 16b\	.	.
.	.	8e/J	.	16cc# 16a\	.	.
.	.	.	.	16eeJJ 16cc#\)	.	.
=99	=99	=99	=99	=99	=99	=99
4EE/	.	8B/L	.	16eeLL 16cc#\	.	.
.	.	.	.	16dd 16b\	.	.
.	.	8e/	.	16cc# 16a\	.	.
.	.	.	.	16bJJ 16g#\	.	.
4E\	.	8d/	.	8bL 8g#\	.	.
.	.	8e/	.	8bJ 8g#\	.	.
4G#\	.	8d/	.	8bL 8g#\	.	.
.	.	8e/J	.	16cc#L 16a\	.	.
.	.	.	.	16ddJJ 16b\	.	.
!	!	!	!	!LO:LB:g=original	!	!
=100	=100	=100	=100	=100	=100	=100
*	*	*	*	*xywh-#15:352,1771,3455,383	*	*
4AA/	.	8c#/L	.	4ee 4cc#\	.	.
.	.	8e/	.	.	.	.
!	!	!	!	!LO:SIC:s=(16eeLL 16cc#	!	!
4A\	.	8c#/	.	16eeLL 16cc#\	.	.
!	!	!	!	!LO:SIC:s=16dd 16b)	!	!
.	.	.	.	16dd 16b\	.	.
!	!	!	!	!LO:SIC:s=16cc# 16a`	!	!
.	.	8e/	.	16cc# 16a\	.	.
!	!	!	!	!LO:SIC:s=16ddJJ 16b`	!	!
.	.	.	.	16ddJJ 16b\	.	.
!	!	!	!	!LO:SIC:s=(16eeLL 16cc#	!	!
4A\	.	8c#/	.	16eeLL 16cc#\	.	.
!	!	!	!	!LO:SIC:s=16dd 16b)	!	!
.	.	.	.	16dd 16b\	.	.
!	!	!	!	!LO:SIC:s=16cc# 16a`	!	!
.	.	8e/J	.	16cc# 16a\	.	.
!	!	!	!	!LO:SIC:s=16ddJJ 16b`	!	!
.	.	.	.	16ddJJ 16b\	.	.
!	!	!LO:LB:g=original	!	!	!	!
=101	=101	=101	=101	=101	=101	=101
*	*	*xywh-#46:477,3395,3437,428	*	*	*	*
4AA/	.	8c#/L	.	8ee 8cc#\	.	.
.	.	8e/	.	4aa 4ee\	.	.
4A\	.	8c#/	.	.	.	.
.	.	8e/	.	16gg#LL 16ee\	.	.
.	.	.	.	16aaJJ 16ff#\	.	.
!	!	!	!	!LO:SIC:s=(16bbLL 16gg#	!	!
4A\	.	8d/	.	16bbLL 16gg#\	.	.
!	!	!	!	!LO:SIC:s=16aa 16ff#)	!	!
.	.	.	.	16aa 16ff#\	.	.
!	!	!	!	!LO:SIC:s=16gg# 16ee`	!	!
.	.	8f#/J	.	16gg# 16ee\	.	.
!	!	!	!	!LO:SIC:s=16ff#JJ 16dd`	!	!
.	.	.	.	16ff#JJ 16dd\	.	.
=102	=102	=102	=102	=102	=102	=102
!	!	!	!	!LO:SIC:s=[4ee [4cc#	!	!
4AA/	.	8c#/L	.	4ee 4cc#\	.	.
.	.	8e/	.	.	.	.
!	!	!	!	!LO:SIC:s=16eeLL] 16cc#]	!	!
4A\	.	8c#/	.	16eeLL 16cc#\	.	.
!	!	!	!	!LO:SIC:s=(16dd 16b	!	!
.	.	.	.	16dd 16b\	.	.
.	.	8e/	.	16cc# 16a\	.	.
!	!	!	!	!LO:SIC:s=16eeJJ 16cc#)	!	!
.	.	.	.	16eeJJ 16cc#\	.	.
!	!	!	!	!LO:SIC:s=(16ddLL 16b	!	!
4E\	.	8B/	.	16ddLL 16b\	.	.
.	.	.	.	16cc# 16a\	.	.
.	.	8d/J	.	16dd 16b\	.	.
!	!	!	!	!LO:SIC:s=16bJJ 16e)	!	!
.	.	.	.	16bJJ 16e\	.	.
=103	=103	=103	=103	=103	=103	=103
4A\	.	8c#/L	.	8aL 8c#/	.	.
.	.	8e/	.	16aL 16c#/	.	.
.	.	.	.	16bJJ 16e/	.	.
4AA/	.	8c#/	.	8aL 8c#/	.	.
.	.	8e/	.	16aL 16c#/	.	.
.	.	.	.	16cc#JJ 16e/	.	.
4A\	.	8c#/	.	4a 4c#/	.	.
.	.	8e/J	.	.	.	.
=104	=104	=104	=104	=104	=104	=104
!	!	!	!	!LO:MO:mod=16qqee	!	!
.	.	.	.	8qqee/	.	.
4EE/	.	8B/L	.	8dd\L	.	.
.	.	8e/	.	16cc#\L	.	.
.	.	.	.	16b\JJ	.	.
4E\	.	8d/	.	8b\L	.	.
.	.	8e/	.	8b\J	.	.
4G#\	.	8d/	.	8b\L	.	.
.	.	8e/J	.	16cc#\L	.	.
.	.	.	.	16dd\JJ	.	.
=105	=105	=105	=105	=105	=105	=105
4AA/	.	16e/LL	.	16cc#\LL	.	.
.	.	16d/J	.	16dd\J	.	.
.	.	8c#/J	.	[8ee\J	.	.
4E\	.	8c#/L	.	16ee\LL]	.	.
.	.	.	.	16gg#\J	.	.
.	.	8e/	.	[8aa\J	.	.
4A\	.	8c#/	.	16aa\LL]	.	.
.	.	.	.	16ee\J	.	.
.	.	8e/J	.	8cc#\J	.	.
=106	=106	=106	=106	=106	=106	=106
!	!	!	!	!LO:MO:mod=16qqee	!	!
.	.	.	.	8qqee/	.	.
4EE/	.	8B/L	.	8dd\L	.	.
.	.	8e/	.	16cc#\L	.	.
.	.	.	.	16b\JJ	.	.
4E\	.	8d/	.	8b\L	.	.
.	.	8e/	.	8b\J	.	.
4G#\	.	8d/	.	8b\L	.	.
.	.	8e/J	.	16cc#\L	.	.
.	.	.	.	16dd\JJ	.	.
!	!	!	!	!LO:LB:g=original	!	!
=107	=107	=107	=107	=107	=107	=107
*	*	*	*	*xywh-#15:344,2012,3410,398	*	*
4AA/	.	16e/LL	.	16cc#\LL	.	.
.	.	16d/J	.	16dd\J	.	.
.	.	8c#/J	.	[8ee\J	.	.
4A\	.	8c#/L	.	16ee\LL]	.	.
.	.	.	.	16gg#\J	.	.
.	.	8e/	.	[8aa\J	.	.
4AA/	.	8c#/	.	16aa\LL]	.	.
.	.	.	.	16ee\J	.	.
.	.	8e/J	.	8cc#\J	.	.
=108	=108	=108	=108	=108	=108	=108
8A\L	.	8f#/L	.	16dd#X\LL	.	.
.	.	.	.	16ee\J	.	.
8B\	.	8d#X/	.	[8ff#\J	.	.
8A\	.	8f#/	.	16ff#\LL]	.	.
.	.	.	.	16gg#\J	.	.
8B\	.	8d#/	.	8aa\J	.	.
!	!	!	!	!LO:MO:mod=16qqbb	!	!
.	.	.	.	8qqbb/	.	.
8A\	.	8f#/	.	8aa\L	.	.
8B\J	.	8d#/J	.	16gg#\L	.	.
.	.	.	.	16ff#\JJ	.	.
=109	=109	=109	=109	=109	=109	=109
8G#\L	.	2.e/	.	16ee\LL	.	.
.	.	.	.	16dd#X\	.	.
8B\	.	.	.	16ee\	.	.
.	.	.	.	16ff#\JJ	.	.
8G#\	.	.	.	16gg#\LL	.	.
.	.	.	.	16ff#\	.	.
8B\	.	.	.	16gg#\	.	.
.	.	.	.	16aa\JJ	.	.
8G#\	.	.	.	16bb\LL	.	.
.	.	.	.	16gg#\	.	.
8B\J	.	.	.	16ff#\	.	.
.	.	.	.	16ee\JJ	.	.
!LO:LB:g=original	!	!	!	!	!	!
=110	=110	=110	=110	=110	=110	=110
*xywh-#67:361,3983,3371,387	*	*	*	*	*	*
8A\L	.	8f#/L	.	16dd#X\LL	.	.
.	.	.	.	16ee\J	.	.
8B\	.	8d#X/	.	[8ff#\J	.	.
8A\	.	8f#/	.	16ff#\LL]	.	.
.	.	.	.	16gg#\J	.	.
8B\	.	8d#/	.	8aa\J	.	.
!	!	!	!	!LO:MO:mod=16qqbb	!	!
.	.	.	.	8qqbb/	.	.
8A\	.	8f#/	.	8aa\L	.	.
8B\J	.	8d#/J	.	16gg#\L	.	.
.	.	.	.	16ff#\JJ	.	.
!	!	!LO:LB:g=original	!	!	!	!
=111	=111	=111	=111	=111	=111	=111
*	*	*xywh-#46:455,3683,3404,450	*	*	*	*
4G#\	.	8e/L	.	16ee\LL	.	p
.	.	.	.	16dd#X\	.	.
.	.	8b/	.	16ee\	.	.
.	.	.	.	16gg#\JJ	.	.
[2E\	.	8g#/	.	16ee\LL	.	.
.	.	.	.	16dd#\	.	.
.	.	8b/	.	16ee\	.	.
.	.	.	.	16gg#\JJ	.	.
!	!	!	!	!	!	!LO:MO:null:mod=<
.	.	8a/	.	16ff#\LL	.	.
!	!	!	!	!	!	!LO:MO:mod=!null:null
!	!	!	!	!	!	!LO:HP:t=cres
!	!	!	!	!	!	!LO:MO:mod=.
.	.	.	.	16ee\	.	<
.	.	8b/J	.	16ff#\	.	.
.	.	.	.	16aa\JJ	.	.
!	!	!	!	!LO:LB:g=original	!	!
=112	=112	=112	=112	=112	=112	=112
*	*	*	*	*xywh-#15:344,2312,3410,394	*	*
4E\]	.	4b 4g#/	.	16gg#\LL	.	.
.	.	.	.	16bb\	.	.
.	.	.	.	16aa#X\	.	.
.	.	.	.	16bb\JJ	.	.
!	!	!	!	!	!	!LO:DY:t=rinf:mod=%s
4r	.	4r	.	16aa#\LL	.	rf
.	.	.	.	16bb\	.	.
.	.	.	.	16ccc#\	.	.
.	.	.	.	16bb\JJ	.	.
8BB/L	.	8f#/L	.	16aan\LL	.	.
.	.	.	.	16gg#\	.	.
8D#X/J	.	8b/J	.	16aa\	.	.
.	.	.	.	16ff#\JJ	.	.
=113	=113	=113	=113	=113	=113	=113
4E\	.	8g#/L	.	16ee\LL	.	p
.	.	.	.	16dd#X\	.	.
.	.	8b/	.	16ee\	.	.
.	.	.	.	16gg#\JJ	.	.
[2E\	.	8g#/	.	16ee\LL	.	.
.	.	.	.	16dd#\	.	.
.	.	8b/	.	16ee\	.	.
.	.	.	.	16gg#\JJ	.	.
!	!	!	!	!	!	!LO:MO:mod=!null:null
!	!	!	!	!	!	!LO:HP:t=cres
.	.	8a/	.	16ff#\LL	.	<
.	.	.	.	16ee\	.	.
.	.	8b/J	.	16ff#\	.	.
.	.	.	.	16aa\JJ	.	.
=114	=114	=114	=114	=114	=114	=114
4E\]	.	4b 4g#/	.	16gg#\LL	.	.
.	.	.	.	16bb\	.	.
.	.	.	.	16aa#X\	.	.
.	.	.	.	16bb\JJ	.	.
!	!	!	!	!	!	!LO:DY:t=rinf:mod=%s
4r	.	4r	.	16aa#\LL	.	rf
.	.	.	.	16bb\	.	.
.	.	.	.	16ccc#\	.	.
.	.	.	.	16bb\JJ	.	.
8BB/L	.	8f#/L	.	16aan\LL	.	.
.	.	.	.	16gg#\	.	.
8D#X/J	.	8b/J	.	16aa\	.	.
.	.	.	.	16ff#\JJ	.	.
=115	=115	=115	=115	=115	=115	=115
4E\	.	4b 4g#/	.	16ee\LL	.	p
.	.	.	.	16dd#X\	.	.
.	.	.	.	16ff#\	.	.
.	.	.	.	16ee\JJ	.	.
4r	.	4r	.	16gg#\LL	.	.
.	.	.	.	16ff#\	.	.
.	.	.	.	16aa\	.	.
.	.	.	.	16gg#\JJ	.	.
!	!	!	!	!	!	!LO:MO:null:mod=rf
8D#X/L	.	8f#/L	.	16bb\LL	.	.
!	!	!	!	!	!	!LO:MO:mod=!null:null
!	!	!	!	!	!	!LO:DY:t=rinf
!	!	!	!	!	!	!LO:MO:mod=.
.	.	.	.	16aa\	.	rf
8BB/J	.	8a/J	.	16ff#\	.	.
.	.	.	.	16gg#\JJ	.	.
!	!	!	!	!LO:LB:g=original	!	!
=116	=116	=116	=116	=116	=116	=116
*	*	*	*	*xywh-#15:341,2579,3459,424	*	*
4E\	.	4g#/	.	16ee\LL	.	.
!	!	!	!	!LO:SIC:s=16dd#	!	!
.	.	.	.	16dd\	.	.
.	.	.	.	16ff#\	.	.
.	.	.	.	16ee\JJ	.	.
4r	.	4r	.	16gg#\LL	.	.
.	.	.	.	16ff#\	.	.
.	.	.	.	16aa\	.	.
.	.	.	.	16gg#\JJ	.	.
8d#X\L	.	8f#/L	.	16bb\LL	.	.
.	.	.	.	16aa\	.	.
8B\J	.	8a/J	.	16ff#\	.	.
.	.	.	.	16gg#\JJ	.	.
=117	=117	=117	=117	=117	=117	=117
4e\	.	4g#/	.	(16ee\LL	.	.
.	.	.	.	16dd#X\)	.	.
.	.	.	.	(16ff#\	.	.
.	.	.	.	16ee\JJ)	.	.
4r	.	4r	.	16gg#\LL	.	.
.	.	.	.	16ff#\	.	.
.	.	.	.	16aa\	.	.
.	.	.	.	16gg#\JJ	.	.
4r	.	4r	.	16bb\LL	.	.
.	.	.	.	16aa\	.	.
.	.	.	.	16ccc#\	.	.
.	.	.	.	16bb\JJ	.	.
=118	=118	=118	=118	=118	=118	=118
4E\	.	4b 4g#/	.	16ddd\LL	.	.
.	.	.	.	16ccc#\	.	.
.	.	.	.	16eee\	.	.
.	.	.	.	16ddd\JJ	.	.
4r	.	4r	.	16fff#\LL	.	.
.	.	.	.	16eee\	.	.
.	.	.	.	16eee\	.	.
.	.	.	.	16ddd\JJ	.	.
4r	.	4r	.	16ddd\LL	.	.
.	.	.	.	16ccc#\	.	.
.	.	.	.	16ccc#\	.	.
.	.	.	.	16bb\JJ	.	.
=119	=119	=119	=119	=119	=119	=119
4EE/	.	4g# 4B/	.	16bb\LL	.	.
.	.	.	.	16aa\	.	.
.	.	.	.	16aa\	.	.
.	.	.	.	16gg#\JJ	.	.
4r	.	4r	.	16gg#\LL	.	.
.	.	.	.	16ddd\	.	>
.	.	.	.	16ddd\	.	.
.	.	.	.	16ccc#\JJ	.	.
4r	.	4r	.	16ccc#\LL	.	.
.	.	.	.	16bb\	.	.
.	.	.	.	16bb\	.	.
.	.	.	.	16aa\JJ	.	]]
!	!	!	!	!LO:LB:g=original	!	!
=120	=120	=120	=120	=120	=120	=120
*	*	*	*	*xywh-#15:329,2895,3455,398	*	*
!LO:TX:a:t=2:mod=	!	!LO:TX:a:t=2:mod=	!	!	!	!
1.r	.	1.r	.	16aa\LL	.	>
.	.	.	.	16gg#\	.	.
.	.	.	.	16gg#\	.	.
.	.	.	.	16ff#\JJ	.	.
.	.	.	.	16ff#\LL	.	.
.	.	.	.	16ee\	.	.
.	.	.	.	16ee\	.	.
.	.	.	.	16bb\JJ	.	.
.	.	.	.	16bb\LL	.	.
.	.	.	.	16aa\	.	.
.	.	.	.	16aa\	.	.
.	.	.	.	16gg#\JJ	.	.
=121	=121	=121	=121	=121	=121	=121
.	.	.	.	16gg#\LL	.	.
.	.	.	.	16ff#\	.	.
.	.	.	.	16ff#\	.	.
.	.	.	.	16ee\JJ	.	.
.	.	.	.	16ee\LL	.	.
.	.	.	.	16ff#\	.	.
.	.	.	.	16ff#\	.	.
.	.	.	.	16ee\JJ	.	.
.	.	.	.	16ee\LL	.	.
.	.	.	.	16ffn\	.	.
.	.	.	.	16ff\	.	.
!	!	!	!	!	!	!LO:MO:mod=]]
.	.	.	.	16ee\JJ	.	]
=122	=122	=122	=122	=122	=122	=122
4AA/	p	8cn/L	p	[4ee\	.	p
.	.	8e/	.	.	.	.
4A\	.	8c/	.	16ee\LL]	.	.
.	.	.	.	16ccn`\	.	.
.	.	8e/	.	16a`\	.	.
.	.	.	.	16cc`\JJ	.	.
4A\	.	8c/	.	16ee\LL	.	.
.	.	.	.	16cc\	.	.
.	.	8e/J	.	16a\	.	.
.	.	.	.	16cc\JJ	.	.
=123	=123	=123	=123	=123	=123	=123
2.A\	.	8cn/L	.	8ee\	.	.
.	.	8e/	.	4aa\	.	.
.	.	8c/	.	.	.	.
.	.	8e/	.	16gg#\LL	.	.
.	.	.	.	16aa\JJ	.	.
.	.	8c/	.	(16bb\LL	.	.
.	.	.	.	16aa\)	.	.
.	.	8e/J	.	16gg#`\	.	.
.	.	.	.	16aa`\JJ	.	.
=124	=124	=124	=124	=124	=124	=124
!	!LO:DY:t=rinf:mod=%s	!	!	!	!	!LO:DY:t=rinf:mod=%s
4AA/	rf	8cn/L	.	[4ffn\	.	rf
!	!	!	!LO:DY:t=rinf:mod=%s	!	!	!
.	.	8fn/	rf	.	.	.
4A\	.	8c/	.	16ff\LL]	.	.
.	.	.	.	16ccn`\	.	.
.	.	8f/	.	16a`\	.	.
.	.	.	.	16cc`\JJ	.	.
4A\	.	8c/	.	16ff\LL	.	.
.	.	.	.	16cc\	.	.
.	.	8f/J	.	16a\	.	.
.	.	.	.	16cc\JJ	.	.
!	!	!LO:LB:g=original	!	!LO:LB:g=original	!	!
=125	=125	=125	=125	=125	=125	=125
*	*	*xywh-#46:448,3960,3429,431	*	*xywh-#15:329,3129,3440,428	*	*
2.A\	.	8cn/L	.	8ffn\	.	.
.	.	8fn/	.	4aa\	.	.
.	.	8cn/	.	.	.	.
.	.	8f/	.	16bb-X\LL	.	.
.	.	.	.	16cccn\JJ	.	.
.	.	8c/	.	16bb-\LL	.	.
.	.	.	.	16aa\	.	.
.	.	8f/J	.	16ggn\	.	.
.	.	.	.	16ff\JJ	.	.
!LO:LB:g=original	!	!	!	!	!	!
=126	=126	=126	=126	=126	=126	=126
*xywh-#67:371,4273,3367,390	*	*	*	*	*	*
4GGn/	.	8cn/L	f	[4bb-X\	.	f
.	.	8e/	.	.	.	.
4Gn\	.	8c/	.	16bb-\LL]	.	.
.	.	.	.	16ggn`\	.	.
.	.	8e/	.	16ee`\	.	.
.	.	.	.	16gg`\JJ	.	.
4G\	.	8c/	.	16bb-\LL	.	.
.	.	.	.	16gg\	.	.
.	.	8e/J	.	16ee\	.	.
.	.	.	.	16gg\JJ	.	.
=127	=127	=127	=127	=127	=127	=127
4FFn/	.	8cn/L	.	(16aa\LL	.	.
.	.	.	.	16ffn\)	.	.
.	.	8fn/	.	16aa`\	.	.
.	.	.	.	16cccn`\JJ	.	.
4Fn\	.	8c/	.	16fffn\LL	.	.
.	.	.	.	16ccc\	.	.
.	.	8f/	.	16aa\	.	.
.	.	.	.	16ccc\JJ	.	.
4F\	.	8c/	.	16aa\LL	.	.
.	.	.	.	16ccc\	.	.
.	.	8f/J	.	16bb-X\	.	.
.	.	.	.	16aa\JJ	.	.
=128	=128	=128	=128	=128	=128	=128
4Gn\	.	8cn/L	p	[4bb-X\	.	.
.	.	8e/	.	.	.	.
4E\	.	8gn/	.	16bb-\LL]	.	.
.	.	.	.	16ggn\	.	.
.	.	8e/	.	16ee\	.	.
.	.	.	.	16gg\JJ	.	.
4Cn/	.	8Gn/	.	16bb-\LL	.	.
.	.	.	.	16gg\	.	.
.	.	8e/J	.	16ee\	.	.
.	.	.	.	16gg\JJ	.	.
!	!	!	!	!LO:LB:g=original	!	!
=129	=129	=129	=129	=129	=129	=129
*	*	*	*	*xywh-#15:325,3418,3410,409	*	*
2Fn\	.	4A/	.	16aa\LL	.	.
.	.	.	.	16ffn\	.	.
.	.	.	.	16aa\	.	.
.	.	.	.	16cccn\JJ	.	.
.	.	2a/	.	16fffn\LL	.	.
.	.	.	.	16ccc\	.	.
.	.	.	.	16aa\	.	.
.	.	.	.	16ccc\JJ	.	.
4E\	.	.	.	16aa\LL	.	.
.	.	.	.	16ccc\	.	.
.	.	.	.	16aa\	.	.
.	.	.	.	16ccc\JJ	.	.
=130	=130	=130	=130	=130	=130	=130
!	!LO:DY:t=rinf:mod=%s	!	!	!	!	!LO:MO:null:mod=rf
2D#X\	rf	8r	.	(16aa\LL	.	.
.	.	.	.	16cccn\	.	.
!	!	!	!	!	!	!LO:MO:mod=!null:null
!	!	!	!	!	!	!LO:DY:t=rinf
!	!	!	!LO:MO:null:mod=rf	!	!	!LO:MO:mod=.
.	.	8f#X/	.	16bbn\)	.	rf
.	.	.	.	16ccc`\JJ	.	.
!	!	!	!LO:MO:mod=!null:null	!	!	!
!	!	!	!LO:DY:t=rinf	!	!	!
!	!	!	!LO:MO:mod=.	!	!	!
.	.	8d#X/L	rf	(16aa\LL	.	.
.	.	.	.	16ccc\	.	.
.	.	8f#/	.	16bb\)	.	.
.	.	.	.	16ccc`\JJ	.	.
4D#\	.	8d#/	.	(16aa\LL	.	.
.	.	.	.	16ccc\	.	.
.	.	8f#/J	.	16bb\)	.	.
.	.	.	.	16ccc`\JJ	.	.
=131	=131	=131	=131	=131	=131	=131
!	!	!	!	!LO:TX:b:i:t= :mod=dolce	!	!
[2.E\	p	8g#X/	p	[4bb\	.	.
.	.	4B/	.	.	.	.
!	!	!	!	!LO:TX:b:i:t=dol:mod=	!	!
.	.	.	.	16bb\LL]	.	.
.	.	.	.	16gg#X`\	.	.
.	.	8g#/L	.	16ee`\	.	.
.	.	.	.	16gg#`\JJ	.	.
.	.	8B/	.	16bb\LL	.	.
.	.	.	.	16gg#\	.	.
.	.	8B/J	.	16ee\	.	.
.	.	.	.	16gg#\JJ	.	.
=132	=132	=132	=132	=132	=132	=132
2.E\_	.	8cn/L	.	16aa\LL	.	.
.	.	.	.	16bb\J	.	.
.	.	8a/	.	[8cccn\J	.	.
.	.	8e/	.	16ccc\LL]	.	.
.	.	.	.	16bb\J	.	.
.	.	8a/	.	[8aa\J	.	.
.	.	8c/	.	16aa\LL]	.	.
.	.	.	.	16bb\J	.	.
.	.	8a/J	.	8ccc\J	.	.
!	!	!	!	!LO:LB:g=original	!	!
=133	=133	=133	=133	=133	=133	=133
*	*	*	*	*xywh-#15:310,3700,3395,406	*	*
8E\]	.	8r	.	[4bb\	.	.
8r	.	8g#/	.	.	.	.
8E\	.	8r	.	16bb\LL]	.	.
.	.	.	.	16gg#X\	.	.
8r	.	8e/	.	16ee\	.	.
.	.	.	.	16gg#\JJ	.	.
8E\	.	8r	.	16bb\LL	.	.
.	.	.	.	16gg#\	.	.
8r	.	8B/	.	16ee\	.	.
.	.	.	.	16gg#\JJ	.	.
=134	=134	=134	=134	=134	=134	=134
8E\	.	8r	.	16aa\LL	.	.
.	.	.	.	16bb\J	.	.
8r	.	8cn/	.	[8cccn\J	.	.
8E\	.	8r	.	16ccc\LL]	.	.
.	.	.	.	16bb\J	.	.
8r	.	8e/	.	[8aa\J	.	.
8E\	.	8r	.	16aa\LL]	.	.
.	.	.	.	16bb\J	.	.
8r	.	8a/	.	8ccc\J	.	.
!	!	!LO:LB:g=original	!	!	!	!
=135	=135	=135	=135	=135	=135	=135
*	*	*xywh-#46:448,4262,3433,454	*	*	*	*
8E\	p	8r	.	16r	.	.
.	.	.	.	(16bb\LL	.	.
8r	.	8g#`/	pp	16aa#X\	.	.
.	.	.	.	16bb\JJ)	.	.
8E\	.	8r	.	16r	.	.
.	.	.	.	(16gg#\LL	.	.
8r	.	8b`\	.	16ff#X\	.	.
.	.	.	.	16gg#\JJ)	.	.
8E\	.	8r	.	16r	.	.
.	.	.	.	(16ee\LL	.	.
8r	.	8b 8g#`/	.	16dd#X\	.	.
.	.	.	.	16ee\JJ)	.	.
=136	=136	=136	=136	=136	=136	=136
8E\	.	8r	.	16r	.	.
.	.	.	.	(16b\LL	.	.
8r	.	8g#`/	.	16a#X\	.	.
.	.	.	.	16b\JJ)	.	.
8E\	.	8r	.	16r	.	.
.	.	.	.	(16g#/LL	.	.
!	!	!	!	!LO:SIC:s=16f##	!	!
8r	.	8B`/	.	16f#X/	.	.
.	.	.	.	16g#/JJ)	.	.
8E\	.	8r	.	16r	.	.
.	.	.	.	(16e/LL	.	.
8r	.	8G#`/	.	16d#X/	.	.
.	.	.	.	16e/JJ)	.	.
!	!	!	!	!LO:LB:g=original	!	!
=137	=137	=137	=137	=137	=137	=137
*	*	*	*	*xywh-#15:310,3990,3433,424	*	*
8E\	pp	8r	.	16r	.	.
.	.	.	.	(16e/LL	.	.
8r	.	8G#`/	.	16fn/	.	.
.	.	.	.	16e/JJ)	.	.
8E\	.	8r	.	16r	.	.
.	.	.	.	(16e/LL	.	.
8r	.	8G#`/	.	16d#X/	.	.
.	.	.	.	16e/JJ)	.	.
8E\	.	8r	.	16r	.	.
.	.	.	.	(16e/LL	.	.
8r	.	8G#`/	.	16f/	.	.
.	.	.	.	16e/JJ)	.	.
=138	=138	=138	=138	=138	=138	=138
4E\	.	8G#/	.	16r	.	.
.	.	.	.	16e`/LL	.	.
.	.	8r	.	16fn`/	.	.
.	.	.	.	16f#X`/JJ	.	.
8r	.	4r	.	16g#`/LL	.	.
.	.	.	.	16a`/	.	.
4r	.	.	.	16a#X`/	.	.
.	.	.	.	16b`/JJ	.	.
.	.	4r	.	16ccn`\LL	.	.
.	.	.	.	16cc#X`\	.	.
8r	.	.	.	16dd`\	.	.
.	.	.	.	16dd#X`\JJ	.	.
!LO:LB:g=original	!	!	!	!	!	!
=139	=139	=139	=139	=139	=139	=139
*xywh-#67:389,4560,3364,430	*	*	*	*	*	*
!	!	!	!LO:MO:null:mod=p	!	!	!
4AA/	.	8c#X/L	.	[4ee\	.	.
!	!	!	!LO:MO:mod=.	!	!	!
.	.	8e/	p	.	.	.
4A\	.	8c#/	.	16ee\LL]	.	.
.	.	.	.	16cc#X\	.	.
.	.	8e/	.	16a\	.	.
.	.	.	.	16cc#\JJ	.	.
4A\	.	8c#/	.	16ee\LL	.	.
.	.	.	.	16cc#\	.	.
.	.	8e/J	.	16a\	.	.
.	.	.	.	16cc#\JJ	.	.
=140	=140	=140	=140	=140	=140	=140
4AA/	.	8c#/L	.	8ee\	.	.
.	.	8e/	.	4aa`\	.	.
4A\	.	8c#/	.	.	.	.
.	.	8e/	.	16gg#\LL	.	.
.	.	.	.	16aa\JJ	.	.
4A\	.	8d/	.	(16bb\LL	.	.
.	.	.	.	16aa\)	.	.
.	.	8f#/J	.	16gg#`\	.	.
.	.	.	.	16ff#`\JJ	.	.
=141	=141	=141	=141	=141	=141	=141
4AA/	.	8c#/L	.	[4ee\	.	.
.	.	8e/	.	.	.	.
4A\	.	8c#/	.	16ee\LL]	.	.
.	.	.	.	16cc#\	.	.
.	.	8e/	.	16a\	.	.
.	.	.	.	16cc#\JJ	.	.
4A\	.	8c#/	.	16ee\LL	.	.
.	.	.	.	16cc#\	.	.
.	.	8e/J	.	16a\	.	.
.	.	.	.	16cc#\JJ	.	.
!	!	!	!	!LO:LB:g=original	!	!
=142	=142	=142	=142	=142	=142	=142
*	*	*	*	*xywh-#15:303,4272,3471,413	*	*
!	!	!	!	!LO:MO:mod=16qqee	!	!
.	.	.	.	8qqee/	.	.
4EE/	.	8B/L	.	8dd\L	.	.
.	.	8e/	.	16cc#\L	.	.
.	.	.	.	16b\JJ	.	.
4E\	.	8d/	.	8b\L	.	.
.	.	8e/	.	8b\J	.	.
4G#\	.	8d/	.	8b\L	.	.
.	.	8e/J	.	16cc#\L	.	.
.	.	.	.	16dd\JJ	.	.
=143	=143	=143	=143	=143	=143	=143
4AA/	.	8c#/L	.	[4ee\	.	.
.	.	8e/	.	.	.	.
4A\	.	8c#/	.	16ee\LL]	.	.
.	.	.	.	16cc#\	.	.
.	.	8e/	.	16a\	.	.
.	.	.	.	16cc#\JJ	.	.
4A\	.	8c#/	.	16ee\LL	.	.
.	.	.	.	16cc#\	.	.
.	.	8e/J	.	16a\	.	.
.	.	.	.	16cc#\JJ	.	.
=144	=144	=144	=144	=144	=144	=144
!	!LO:DY:t=rinf:mod=%s	!	!LO:MO:null:mod=rf	!	!	!
4AA/	rf	8c#/L	.	8ee\	.	.
!	!	!	!	!	!	!LO:MO:mod=!null:null
!	!	!	!	!	!	!LO:HP:t=cres
.	.	8e/	.	4aa\	.	<
!	!	!	!LO:MO:mod=!null:null	!	!	!
!	!	!	!LO:DY:t=rinf	!	!	!
!	!	!	!LO:MO:mod=.	!	!	!
4A\	.	8c#/	rf	.	.	.
.	.	8e/	.	4aa\	.	.
4A\	.	8c#/	.	.	.	.
.	.	8e/J	.	16ccc#\LL	.	.
.	.	.	.	16ddd\JJ	.	.
!	!	!LO:LB:g=original	!	!	!	!
=145	=145	=145	=145	=145	=145	=145
*	*	*xywh-#46:444,4547,3470,443	*	*	*	*
!	!	!	!	!	!	!LO:MO:null:mod=rf
4AA/	f	8c#/L	f	[4eee\	.	.
.	.	8e/	.	.	.	.
!	!	!	!	!	!	!LO:MO:mod=!null:null
!	!	!	!	!	!	!LO:DY:t=rinf
!	!	!	!	!	!	!LO:MO:mod=.
4A\	.	8c#/	.	16eee\LL]	.	rf
.	.	.	.	16ccc#`\	.	.
.	.	8e/	.	16aa`\	.	.
.	.	.	.	16ccc#\JJ	.	.
4E\	.	8B/	.	16ddd\LL	.	.
.	.	.	.	16bb\	.	.
.	.	8d/J	.	16gg#`\	.	.
.	.	.	.	16bb`\JJ	.	.
=146	=146	=146	=146	=146	=146	=146
!	!	!	!LO:MO:null:mod=p	!LO:TX:b:i:t=dol:mod=dolce	!	!
4A\	p	8c#/L	.	4.aa\	.	.
!	!	!	!LO:MO:mod=.	!	!	!
.	.	[8e/J	p	.	.	.
2AA/	.	16e/LL]	.	.	.	.
.	.	16c#/	.	.	.	.
.	.	16A/	.	16bb\LL	.	.
.	.	16c#/JJ	.	16ccc#\JJ	.	.
.	.	16e/LL	.	8aa\L	.	.
.	.	16c#/	.	.	.	.
.	.	16A/	.	16ccc#\L	.	.
.	.	16c#/JJ	.	16eee\JJ	.	.
!	!	!	!	!LO:LB:g=original	!	!
=147	=147	=147	=147	=147	=147	=147
*	*	*	*	*xywh-#15:299,4550,3512,473	*	*
!	!	!	!	!	!	!LO:MO:null:mod=rf
4EE/	.	8B/L	.	8ddd\L	.	.
!	!	!	!	!	!	!LO:MO:mod=!null:null
!	!	!	!	!	!	!LO:DY:t=rinf
!	!	!	!	!	!	!LO:MO:mod=.
.	.	8g#X/J	.	16ddd\L	.	rf
.	.	.	.	16ccc#\JJ	.	.
!	!LO:DY:t=rinf:mod=%s	!	!	!	!	!
2E\	rf	8g#/L	.	8bb\L	.	.
.	.	16g#/L	.	16bb\L	.	.
.	.	16f#/JJ	.	16aa\JJ	.	.
.	.	8e/L	.	16gg#\LL	.	.
.	.	.	.	16ee\	.	.
.	.	8d/J	.	16ff#\	.	.
.	.	.	.	16gg#\JJ	.	.
=148	=148	=148	=148	=148	=148	=148
4A\	.	8c#/L	.	4.aa\	.	p
!	!	!LO:SIC:s=[8eJ	!	!	!	!
.	.	8e/J	.	.	.	.
!	!	!LO:SIC:s=16eLL]	!	!	!	!
2AA/	p	16e/LL	.	.	.	.
.	.	16c#/	.	.	.	.
.	.	16A/	.	16bb\LL	.	.
.	.	16c#/JJ	.	16ccc#\JJ	.	.
.	.	16e/LL	.	8aa\L	.	.
.	.	16c#/	.	.	.	.
.	.	16A/	.	16ccc#\L	.	.
.	.	16c#/JJ	.	16eee\JJ	.	.
=149	=149	=149	=149	=149	=149	=149
!	!	!	!	!	!	!LO:MO:null:mod=rf
4EE/	.	8B/L	.	8ddd\L	.	.
.	.	8g#/J	.	16ddd\L	.	.
!	!	!	!	!	!	!LO:MO:mod=!null:null
!	!	!	!	!	!	!LO:DY:t=rinf
!	!	!	!	!	!	!LO:MO:mod=.
.	.	.	.	16ccc#\JJ	.	rf
!	!LO:DY:t=rinf:mod=%s	!	!	!	!	!
2E\	rf	8g#/L	.	8bb\L	.	.
.	.	16g#/L	.	16bb\L	.	.
.	.	16f#/JJ	.	16aa\JJ	.	.
.	.	8e/L	.	16gg#\LL	.	.
.	.	.	.	16ee\	.	.
.	.	16e/L	.	16ff#\	.	.
.	.	16d/JJ	.	16gg#\JJ	.	.
=150	=150	=150	=150	=150	=150	=150
!	!	!	!	!	!	!LO:MO:null:mod=f
4AA/	f	4c#/	f	4aa\	.	.
!	!	!	!	!	!	!LO:MO:mod=.
4A\	.	4a 4e 4c#/	.	16aa\LL	.	f
.	.	.	.	16ee\	.	.
.	.	.	.	16cc#\	.	.
.	.	.	.	16ee\JJ	.	.
4A\	.	4a 4e 4c#/	.	16aa\LL	.	.
.	.	.	.	16ee\	.	.
.	.	.	.	16cc#\	.	.
.	.	.	.	16ee\JJ	.	.
=151	=151	=151	=151	=151	=151	=151
*	*	*	*	*^	*	*
*	*	*	*	*	*xywh-#15:299,4550,3512,473	*	*
4A\	.	4a 4e 4c#/	.	2.aa 2.cc#/	4e\	.	.
16A\LL	.	16e/LL	.	.	4e\	.	.
16E\	.	16c#/	.	.	.	.	.
16C#\	.:	16A/	.	.	.	.	.
16E\JJ	.	16c#/JJ	.	.	.	.	.
16A\LL	.	16e/LL	.	.	4e\	.	.
16E\	.	16c#/	.	.	.	.	.
16C#\	.	16A/	.	.	.	.	.
16E\JJ	.	16c#/JJ	.	.	.	.	.
*	*	*	*	*v	*v	*	*
=152	=152	=152	=152	=152	=152	=152
4AA/	.	4e 4A/	.	4aa 4cc# 4e\	.	.
4r	.	4r	.	4r	.	.
4r	.	4r	.	4r	.	.
=153	=153	=153	=153	=153	=153	=153
!	!	!	!	!	!	!LO:MO:mod=!LO&colon;DY&colon;ed=brack
!	!	!	!	!	!	!null
!	!	!	!	!	!	!LO:MO:null:mod=ff
16r	.	16a/LL	ff	4aa 4cc# 4e\	.	.
!	!LO:MO:mod=!LO&colon;DY&colon;ed=brack	!	!	!	!	!
!	!null	!	!	!	!	!
!	!LO:MO:null:mod=ff	!	!	!	!	!
16AA/LL	.	16e/	.	.	.	.
16C#/	.	16c#/	.	.	.	.
16E/JJ	.	16e/JJ	.	.	.	.
4A\	.	4a/	.	4a 4e 4A/	.	.
4r	.	4r	.	4r	.	.
==	==	==	==	==	==	==
*-	*-	*-	*-	*-	*-	*-
!!!system-decoration: [(*)]
!!!RDF**kern: < = below
!!!filter-modern: shed -e "s/TX(.*):t=P:/tx$1:t=P:/LG" | shed -X dynam -e "s/:a/:A/LX" | sic -sq | modori -m | autostem -r | tie -s
!!!ENC: Mateusz Solarz
!!!END: 2022-05-21
!!!EED: Urszula Świątek
!!!EEV: 2022-06-30
!!!ENC-modern: Andrzej Kubiczek
!!!END-modern: 2022-08-18
!!!ENC-iiif: Mateusz Mrugas
!!!END-iiif: 2022-09-07
